!!!!SEGMENT: pl-stab--4a--001-004_dankowski-adalbert--vesper-beate-marie-vir-laetatus-sum.krn
!!!cenid: 18xx:3493
!!!COM: Dankowski, Adalbert
!!!COM-rismID: pe30000793
!!!CDT: ~1760-~1836
!!!CNT: Polish
!!!OPR: Vesper Beate Marie Vir
!!!OTL: Laetatus sum
!!!OMV: 004
!!!PDT:
!!!AGN: Sacred; Vespers
!!!SMS-siglum: PL-STAb
!!!SMS-shelfmark: 4a
!!!SMS-shelfwork: 001-004 M
!!!SMS-variant:
!!!SMS-altvar:
!!!NIFC-rismSourceID: 301050556
!!!NIFC-islandoraID: pl-stab:1091
!!!URL-pdf-islandora: https://repozytorium.nifc.pl/islandora/object/pl-stab%3A1091/datastream/PDF/view
!!!URL-scan: https://polish.musicsources.pl/pl/lokalizacje/galeria/rekopisy/4518 @EN{Scan on Polish Music Sources Website} @PL{Skany w portalu Dziedzictwo Muzyki Polskiej w otwartym dostępie}
!!!ONB-nifc: UWAGA: części Nieszporów: 1. Domine ad adjuvandum, 2. Dixit Dominus, 3. Laudate pueri, 4. Laetatus sum, 5. Nisi Dominus, 6. Lauda Jerusalem, 7. Magnificat, 8. Et misericordia, 9. Gloria. UWAGA: Na f. 1v okładki zapisany głos org niezidentyfikowanych nieszporów
!!!AIN: 1 alto 3 empty 1 organ 1 tenor 2 violn 1 vox
!!!key:
!!!OMD:
!!!OMD-mod: Allegro
!!!filter-modern: sic -sq | shed -k -e "s/:TUP:/:tup:/L" | shed -e "s/TX(.*):t=P:/tx$1:t=P:/LG" | shed -e "s/:rj/:RJ/L" | shed -k -e "s/[<>]//g" | shed -e "s/LO:DY:(a|b|rj)/LO:dy:$1/L" | shed -e "s/^(\d+[\/\\]right)/$1yy/I;s/^(\d+[\/\\]left)/$1yy/I" | shed -e "s/-//B" | autostem -r | tie -s  | modori -m | humtr -p
**kern	**fba	**dynam	**kern	**dynam	**kern	**dynam	**kern	**text	**kern	**text	**kern	**text	**kern	**text	**kern	**dynam	**kern	**dynam
*part9	*part9	*part9	*part8	*part8	*part7	*part7	*part6	*part6	*part5	*part5	*part4	*part4	*part3	*part3	*part2	*part2	*part1	*part1
*staff9	*staff9	*	*staff8	*	*staff7	*	*staff6	*staff6	*staff5	*staff5	*staff4	*staff4	*staff3	*staff3	*staff2	*	*staff1	*
*Iorgan	*	*	*Ivioln	*	*Ivioln	*	*Iempty	*	*Itenor	*	*Ialto	*	*Ivox	*	*Iempty	*	*Iempty	*
*I"Organo	*	*	*I"Violino Secundo	*	*I"Violino Primo	*	*I"Baſso	*	*I"Tenor	*	*I"Alto	*	*I"Canto	*	*I"Cornu Secundo Ex C	*	*I"Cornu Primo Ex C	*
*I'org	*	*	*I'vl 2	*	*I'vl 1	*	*I'B	*	*I'T	*	*I'A	*	*I'S	*	*I'cor 2 in C	*	*I'cor 1 in C	*
*ICklav	*	*	*ICstr	*	*ICstr	*	*ICvox	*	*ICvox	*	*ICvox	*	*ICvox	*	*ICbras	*	*ICbras	*
*IGcont	*	*	*IGacmp	*	*IGacmp	*	*IGcoro	*	*IGcoro	*	*IGcoro	*	*IGcoro	*	*IGacmp	*	*IGacmp	*
*	*	*	*mI"Violino II	*	*mI"Violino I	*	*mI"Basso	*	*mI"Tenore	*	*	*	*mI"Soprano	*	*mI"Corno II in C	*	*mI"Corno I in C	*
*clefF4	*	*	*clefG2	*	*clefG2	*	*clefF4	*	*clefC4	*	*clefC3	*	*clefC1	*	*clefG2	*	*clefG2	*
*	*	*	*	*	*	*	*	*	*mclefGv2	*	*mclefG2	*	*mclefG2	*	*	*	*	*
*	*	*	*	*	*	*	*	*	*	*	*	*	*	*	*Trd0c0	*	*Trd0c0	*
*k[]	*	*	*k[]	*	*k[]	*	*k[]	*	*k[]	*	*k[]	*	*k[]	*	*k[]	*	*k[]	*
*C:	*	*	*C:	*	*C:	*	*C:	*	*C:	*	*C:	*	*C:	*	*C:	*	*C:	*
*M2/4	*	*	*M2/4	*	*M2/4	*	*M2/4	*	*M2/4	*	*M2/4	*	*M2/4	*	*M2/4	*	*M2/4	*
!	!	!	!	!	!LO:MO:mod=!LO&colon;TX&colon;i&colon;t=Solo	!	!	!	!	!	!	!	!LO:MO:mod=!LO&colon;TX&colon;i&colon;t=Solo	!	!	!	!LO:TX:a:t=allo:mod=	!
!LO:TX:a:t=allo:mod=	!	!LO:DY:a	!LO:TX:a:t=allo Solo:mod=	!	!LO:TX:a:t=allo:mod=	!LO:DY:a	!LO:TX:a:t=allo:mod=	!	!LO:TX:a:t=allo:mod=	!	!	!	!LO:TX:a:t=allo Solo	!	!LO:TX:a:t=allo:mod=	!	!	!
!	!	!LO:MO:null:mod=.	!	!	!	!	!	!	!	!	!	!	!	!	!	!	!	!
8r	.	p	8r	.	8g/	p	8r	.	8r	.	8r	.	8g\	Lae-	8r	.	8r	.
=1	=1	=1	=1	=1	=1	=1	=1	=1	=1	=1	=1	=1	=1	=1	=1	=1	=1	=1
!LO:MO:null:mod=!LO&colon;TX&colon;i&colon;t=Solo	!	!	!LO:MO:null:mod=!LO&colon;TX&colon;i&colon;t=Solo	!	!	!	!	!	!	!	!	!	!	!	!	!	!	!
!LO:TX:a:t=Solo	!	!LO:MO:null:mod=p	!	!LO:DY:a	!	!	!	!	!	!	!	!	!	!	!	!	!	!
8C/	.	.	(16e/LL	p	8cc\L|	.	0r	.	0r	.	0r	.	8cc\	-ta-	0r	.	0r	.
.	.	.	16g/)	.	.	.	.	.	.	.	.	.	.	.	.	.	.	.
8r	.	.	(16e/	.	8cc\|	.	.	.	.	.	.	.	8cc\	-tus	.	.	.	.
.	.	.	16g/JJ)	.	.	.	.	.	.	.	.	.	.	.	.	.	.	.
8BB/	6 5	.	(16f/LL	.	8dd\|	.	.	.	.	.	.	.	8dd\	sum	.	.	.	.
.	.	.	16g/)	.	.	.	.	.	.	.	.	.	.	.	.	.	.	.
8r	.	.	(16f/	.	8dd\J|	.	.	.	.	.	.	.	8dd\	lae-	.	.	.	.
.	.	.	16g/JJ)	.	.	.	.	.	.	.	.	.	.	.	.	.	.	.
=2	=2	=2	=2	=2	=2	=2	=2	=2	=2	=2	=2	=2	=2	=2	=2	=2	=2	=2
8C/	.	.	(16e/LL	.	(8.ee\L	.	.	.	.	.	.	.	8.ee\L	-ta-	.	.	.	.
.	.	.	16g/)	.	.	.	.	.	.	.	.	.	.	.	.	.	.	.
8r	.	.	(16e/	.	.	.	.	.	.	.	.	.	.	.	.	.	.	.
.	.	.	16g/JJ)	.	32ff\LL	.	.	.	.	.	.	.	32ff\LL	.	.	.	.	.
.	.	.	.	.	32ee\JJJ)	.	.	.	.	.	.	.	32ee\JJJ	.	.	.	.	.
!	!	!	!	!	!LO:TX:t=P:problem=mixed beam	!	!	!	!	!	!	!	!	!	!	!	!	!
8BB/	6 5	.	(16f/LL	.	8dd\L|	.	.	.	.	.	.	.	8dd\	-tus	.	.	.	.
.	.	.	16d/)	.	.	.	.	.	.	.	.	.	.	.	.	.	.	.
8r	.	.	(16f/	.	8g/J|	.	.	.	.	.	.	.	8g\	lae-	.	.	.	.
.	.	.	16d/JJ)	.	.	.	.	.	.	.	.	.	.	.	.	.	.	.
=3	=3	=3	=3	=3	=3	=3	=3	=3	=3	=3	=3	=3	=3	=3	=3	=3	=3	=3
8BB/	6 5	.	(16d/LL	.	8dd\L|	.	.	.	.	.	.	.	8dd\	-ta-	.	.	.	.
.	.	.	16f/)	.	.	.	.	.	.	.	.	.	.	.	.	.	.	.
8r	.	.	(16d/	.	8dd\|	.	.	.	.	.	.	.	8dd\	-tus	.	.	.	.
.	.	.	16f/JJ)	.	.	.	.	.	.	.	.	.	.	.	.	.	.	.
8C/	.	.	(16e/LL	.	8ee\|	.	.	.	.	.	.	.	8ee\	sum	.	.	.	.
.	.	.	16g/)	.	.	.	.	.	.	.	.	.	.	.	.	.	.	.
8r	.	.	(16e/	.	8ee\J|	.	.	.	.	.	.	.	8ee\	lae-	.	.	.	.
.	.	.	16g/JJ)	.	.	.	.	.	.	.	.	.	.	.	.	.	.	.
=4	=4	=4	=4	=4	=4	=4	=4	=4	=4	=4	=4	=4	=4	=4	=4	=4	=4	=4
8BB/	6 5	.	(16f/LL	.	(8.ff\L	.	.	.	.	.	.	.	8.ff\L	-ta-	.	.	.	.
.	.	.	16d/)	.	.	.	.	.	.	.	.	.	.	.	.	.	.	.
8r	.	.	(16f/	.	.	.	.	.	.	.	.	.	.	.	.	.	.	.
.	.	.	16d/JJ)	.	32gg\LL	.	.	.	.	.	.	.	32gg\LL	.	.	.	.	.
.	.	.	.	.	32ff\JJJ)	.	.	.	.	.	.	.	32ff\JJJ	.	.	.	.	.
!	!	!	!	!	!LO:TX:t=P:problem=mixed beam	!	!	!	!	!	!	!	!	!	!	!	!	!
8C/	.	.	8e/	.	8ee\L|	.	.	.	.	.	.	.	8ee\	-tus	.	.	.	.
8r	.	.	8r	.	8g/J|	.	.	.	.	.	.	.	8g\	in	.	.	.	.
=5	=5	=5	=5	=5	=5	=5	=5	=5	=5	=5	=5	=5	=5	=5	=5	=5	=5	=5
8r	.	.	8r	.	4.cc\	.	1r	.	1r	.	1r	.	4.cc\	his	0r	.	0r	.
8E\L	6	.	8g/L	.	.	.	.	.	.	.	.	.	.	.	.	.	.	.
8E\	_	.	8g/	.	.	.	.	.	.	.	.	.	.	.	.	.	.	.
8E\J	5-	.	8g/J	.	8b-X\	.	.	.	.	.	.	.	8b-X\	que	.	.	.	.
!	!	!	!	!	!	!	!	!	!	!	!	!	!LO:LB:g=original	!	!	!	!	!
=6	=6	=6	=6	=6	=6	=6	=6	=6	=6	=6	=6	=6	=6	=6	=6	=6	=6	=6
!	!	!	!	!	!LO:SIC:v:s=16b-LL	!	!	!	!	!	!	!	!LO:SIC:v:s=16b-	!	!	!	!	!
8r	.	.	8r	.	16b/LL	.	.	.	.	.	.	.	16b\LL	dic-	.	.	.	.
.	.	.	.	.	16a/JJ	.	.	.	.	.	.	.	16a\JJ	.	.	.	.	.
8F\L	3	.	8c/L	.	4a/	.	.	.	.	.	.	.	4a\	-ta	.	.	.	.
8F\	_	.	8c/	.	.	.	.	.	.	.	.	.	.	.	.	.	.	.
8F\J	.	.	8c/J	.	16bn\LL	.	.	.	.	.	.	.	16bn\LL	quae	.	.	.	.
.	x	.	.	.	16cc\JJ	.	.	.	.	.	.	.	16cc\JJ	.	.	.	.	.
=7	=7	=7	=7	=7	=7	=7	=7	=7	=7	=7	=7	=7	=7	=7	=7	=7	=7	=7
8r	.	.	8r	.	16cc#X\LL	.	2r	.	2r	.	2r	.	16cc#X\LL	di-	.	.	.	.
.	.	.	.	.	16dd\JJ	.	.	.	.	.	.	.	16dd\JJ	.	.	.	.	.
!	!	!	!	!	!LO:SIC:v:s=4dd	!	!	!	!	!	!	!	!	!	!	!	!	!
8F\L	6	.	8a/L	.	4ee\	.	.	.	.	.	.	.	4dd\	-cta	.	.	.	.
8F\	.	.	8a/	.	.	.	.	.	.	.	.	.	.	.	.	.	.	.
8F#X\J	5	.	8a/J	.	8ccn\	.	.	.	.	.	.	.	8ccn\	sunt	.	.	.	.
=8	=8	=8	=8	=8	=8	=8	=8	=8	=8	=8	=8	=8	=8	=8	=8	=8	=8	=8
!LO:TX:t=P:problem=mixed beam	!	!	!	!	!	!	!	!	!	!	!	!	!	!	!	!	!	!
8G\L	4	.	8e/L	.	8cc\L	.	4r	.	4r	.	4r	.	8cc\	mi-	.	.	.	.
8G\	n	.	8d/J	.	8b\J	.	.	.	.	.	.	.	8b\	-hi	.	.	.	.
!	!	!	!LO:LB:g=original	!	!	!	!	!	!	!	!	!	!	!	!	!	!	!
8GG/J	.	.	8r	.	8r	.	8r	.	8r	.	8r	.	8r	.	.	.	.	.
!	!	!LO:MO:null:mod=!LO&colon;DY&colon;ed=brack	!	!	!	!	!	!	!	!	!	!	!	!	!	!	!	!
!LO:MO:null:mod=!LO&colon;TX&colon;i&colon;t=Tutti	!	!	!	!	!	!	!	!	!	!	!	!	!	!	!	!	!	!
!LO:TX:a:t=tutti	!	!LO:MO:null:mod=f	!	!LO:DY:a	!	!LO:MO:null:mod=f	!	!	!	!	!	!	!	!	!	!	!	!
8G\	.	.	8g/	f	8g/	.	8G\	in	8G/	in	8g\	in	8g\	in	.	.	.	.
!	!	!	!	!	!LO:LB:g=original	!	!	!	!	!	!	!	!	!	!	!	!	!
=9	=9	=9	=9	=9	=9	=9	=9	=9	=9	=9	=9	=9	=9	=9	=9	=9	=9	=9
!	!	!	!	!	!	!LO:DY:a	!	!	!	!	!	!	!	!	!	!	!	!
!	!	!	!	!	!LO:SIC:s=8aL|	!LO:MO:null:mod=.	!	!	!	!	!	!	!	!	!	!	!	!
8A\L|	.	.	8a/L|	.	8a/L	f	8A\L	Do-	8A/L	Do-	8a\L	Do-	8a\L	Do-	2r	.	2r	.
!	!	!	!	!	!LO:SIC:s=8g|	!	!	!	!	!	!	!	!	!	!	!	!	!
8G\|	.	.	8g/|	.	8g/	.	8G\J	.	8G/J	.	8g\J	.	8g\J	.	.	.	.	.
!	!	!	!	!	!LO:SIC:s=8a|	!	!	!	!	!	!	!	!	!	!	!	!	!
8A\|	.	.	8a/|	.	8a/	.	8A\L	.	8A\L	.	8a\L	.	8a\	.	.	.	.	.
!	!	!	!	!	!LO:SIC:s=8bJ|	!	!	!	!	!	!	!	!	!	!	!	!	!
8B\J|	.	.	8b/J|	.	8b/J	.	8B\J	-mum	8B\J	-mum	8b\J	-mum	8b\	-mum	.	.	.	.
!LO:LB:g=original	!	!	!	!	!	!	!	!	!	!	!	!	!	!	!	!	!	!
=10	=10	=10	=10	=10	=10	=10	=10	=10	=10	=10	=10	=10	=10	=10	=10	=10	=10	=10
!	!	!	!LO:SIC:s=8.ccL(	!	!	!	!	!	!	!	!	!	!	!	!	!	!	!
8.c\L	.	.	8.cc\L|	.	(8.cc\L	.	8.c\	Do-	8.c\	Do-	8.cc\	Do-	8.cc\	Do-	4r	.	4r	.
!	!	!	!LO:SIC:s=32eeLL	!	!	!	!	!	!	!	!	!	!	!LO:MO:null:mod=-mi-	!	!	!	!
32e\LL	.	.	(32ee\LL	.	32ee\LL	.	32e\LLL	-mi-	32e\LLL	-mi-	32ee\LLL	-mi-	32ee\LLL	.	.	.	.	.
32d\JJJ	.	.	32dd\JJJ)	.	32dd\JJJ)	.	32d\JJJ	.	32d\JJJ	.	32dd\JJJ	.	32dd\JJJ	.	.	.	.	.
!	!	!	!LO:SIC:s=8ccL	!	!	!	!	!	!	!	!	!	!	!LO:MO:mod=-ni	!	!	!	!
8c\L	.	.	8cc/L|	.	8cc\L	.	8c\	-ni	8c\	-ni	8cc\	-ni	8cc\	-mi-	8r	.	8r	.
!	!	!	!	!	!	!	!	!	!	!	!	!	!	!LO:MO:null:mod=*ij	!	!LO:DY:a	!	!LO:DY:a:rj
*	*	*	*	*	*	*	*	*ij	*	*ij	*	*ij	*	*	*	*	*	*
!	!	!	!LO:SIC:s=8gJ	!	!	!	!	!	!	!	!	!	!	!LO:MO:mod=Do-	!	!	!	!
8E\J	6	.	8g/J|	.	8cc\J	.	8E\	Do-	8c\	Do-	8g\	Do-	8cc\	-ni	8cc\	f	8ee\	f
=11	=11	=11	=11	=11	=11	=11	=11	=11	=11	=11	=11	=11	=11	=11	=11	=11	=11	=11
!LO:TX:t=P:problem=mixed beam	!	!	!	!	!	!	!	!	!	!	!	!	!	!	!	!	!	!
*	*	*	*	*	*	*	*	*	*	*	*	*	*	*ij	*	*	*	*
!	!	!	!	!	!	!	!	!	!	!	!	!	!	!LO:MO:mod=-mi-	!	!	!	!
8F\L	6	.	8a/L	.	8dd\L	.	8F\	-mi-	8A\	-mi-	8a\	-mi-	8dd\	Do-	4dd\	.	4ff\	.
!	!	!	!	!	!	!	!	!	!	!	!	!	!	!LO:MO:mod=-ni	!	!	!	!
8F\	_	.	8f/	.	16ff\L	.	8F\	-ni	8A\	-ni	16a\LL	-ni	16ff\LL	-mi-	.	.	.	.
*	*	*	*	*	*	*	*	*Xij	*	*Xij	*	*Xij	*	*	*	*	*	*
!	!	!	!	!	!	!	!	!	!	!	!	!	!	!LO:MO:null:mod=.	!	!	!	!
.	.	.	.	.	16dd\JJ	.	.	.	.	.	16f\JJ	.	16dd\JJ	-ni	.	.	.	.
*	*	*	*	*	*	*	*	*	*	*	*	*	*	*Xij	*	*	*	*
8G\	4	.	8e/	.	8cc\L	.	8G\	i-	8G/	i-	8e\	i-	8cc\	i-	8cc\L	.	8ee\L	.
8GG/J	3	.	8d/J	.	8b\J	.	8G\	-bi-	8G/	-bi-	8d\	-bi-	8b\	-bi-	8g\J	.	8dd\J	.
!	!	!	!	!	!	!	!	!	!	!	!	!	!LO:LB:g=original	!	!	!	!	!
=12	=12	=12	=12	=12	=12	=12	=12	=12	=12	=12	=12	=12	=12	=12	=12	=12	=12	=12
!	!	!	!LO:MO:null:mod=*tremolo	!	!	!	!	!	!	!	!	!	!	!	!	!	!	!
*tremolo	*	*	*	*	*	*	*	*	*	*	*	*	*	*	*	*	*2\right	*
8C/L	.	.	16e/LL	.	8cc\L	.	4C/	-mus	4G/	-mus	4e\	-mus	4cc\	-mus	4e/	.	2cc\	.
.	.	.	16e/	.	.	.	.	.	.	.	.	.	.	.	.	.	.	.
8C/	.	.	16e/	.	16cc\L	.	.	.	.	.	.	.	.	.	.	.	.	.
.	.	.	16e/JJ	.	16dd\JJ	.	.	.	.	.	.	.	.	.	.	.	.	.
*	*	*	*tremolo	*	*	*	*	*	*	*	*	*	*	*	*	*	*	*
8C/	.	.	16g/LL	.	8ee\L	.	8c\	ſtan-	8c\	ſtan-	8g\	ſtan-	8ee\	ſtan-	4c/	.	.	.
.	.	.	16g/	.	.	.	.	.	.	.	.	.	.	.	.	.	.	.
8C/J	.	.	16g/	.	8ee\J	.	8c\	-tes	8c\	-tes	8g\	-tes	8ee\	-tes	.	.	.	.
.	.	.	16g/JJ	.	.	.	.	.	.	.	.	.	.	.	.	.	.	.
*Xtremolo	*	*	*	*	*	*	*	*	*	*	*	*	*	*	*	*	*	*
!	!	!	!	!	!	!	!	!	!	!	!LO:LB:g=original	!	!	!	!	!	!	!
=13	=13	=13	=13	=13	=13	=13	=13	=13	=13	=13	=13	=13	=13	=13	=13	=13	=13	=13
8C/L	6 4	.	16a/LL	.	8.ff\L	.	4c\	e-	4c\	e-	4a\	e-	4ff\	e-	2c/	.	2cc\	.
.	.	.	16a/	.	.	.	.	.	.	.	.	.	.	.	.	.	.	.
8C/	.	.	16a/	.	.	.	.	.	.	.	.	.	.	.	.	.	.	.
.	.	.	16a/JJ	.	32gg\LL	.	.	.	.	.	.	.	.	.	.	.	.	.
.	.	.	.	.	32ff\JJJ	.	.	.	.	.	.	.	.	.	.	.	.	.
.	.	.	.	.	16qqff/	.	.	.	.	.	.	.	.	.	.	.	.	.
8C/	5 3	.	16g/LL	.	8ee\L	.	4c\	-rant	4c\	-rant	4g\	-rant	4ee\	-rant	.	.	.	.
.	.	.	16g/	.	.	.	.	.	.	.	.	.	.	.	.	.	.	.
8C/J	.	.	16g/	.	16dd\L	.	.	.	.	.	.	.	.	.	.	.	.	.
.	.	.	16g/JJ	.	16cc\JJ	.	.	.	.	.	.	.	.	.	.	.	.	.
!	!	!	!	!	!	!	!	!	!LO:LB:g=original	!	!	!	!	!	!	!	!	!
=14	=14	=14	=14	=14	=14	=14	=14	=14	=14	=14	=14	=14	=14	=14	=14	=14	=14	=14
*tremolo	*	*	*	*	*	*	*	*	*	*	*	*	*	*	*	*	*	*
8BB/L	6 5	.	16g/LL	.	(16b\LL	.	4B\	pe-	4B\	pe-	4g\	pe-	4dd\	pe-	2g/	.	4dd\	.
.	.	.	16g/	.	16dd\J	.	.	.	.	.	.	.	.	.	.	.	.	.
8BB/	.	.	16g/	.	(8.dd\J)	.	.	.	.	.	.	.	.	.	.	.	.	.
.	.	.	16g/JJ	.	.	.	.	.	.	.	.	.	.	.	.	.	.	.
8BB/	.	.	16dd\LL	.	.	.	4B\	-des	4G/	-des	4f\	-des	4dd\	-des	.	.	8dd\L	.
.	.	.	16dd\	.	16ee\LL)	.	.	.	.	.	.	.	.	.	.	.	.	.
8BB/J	.	.	16dd\	.	(16ff\	.	.	.	.	.	.	.	.	.	.	.	8gg\J	.
.	.	.	16dd\JJ	.	16gg\JJ)	.	.	.	.	.	.	.	.	.	.	.	.	.
*Xtremolo	*	*	*Xtremolo	*	*	*	*	*	*	*	*	*	*	*	*	*	*	*
!	!	!	!	!	!	!	!LO:LB:g=original	!	!	!	!	!	!	!	!	!	!	!
=15	=15	=15	=15	=15	=15	=15	=15	=15	=15	=15	=15	=15	=15	=15	=15	=15	=15	=15
!	!	!	!LO:SIC:s=(8.ddL	!	!LO:SIC:s=(8.ffTL	!	!	!	!	!	!	!	!	!	!	!	!	!
8C/L	4	.	8.dd\L	.	8.ffT\L	.	4c\	no-	4G/	no-	4f\	no-	4dd\	no-	4dd\	.	4ff\	.
8C/	.	.	.	.	.	.	.	.	.	.	.	.	.	.	.	.	.	.
!	!	!	!	!	!LO:SIC:s=32eeLL	!	!	!	!	!	!	!	!	!	!	!	!	!
.	.	.	32cc\LL	.	(32ee\LL	.	.	.	.	.	.	.	.	.	.	.	.	.
!	!	!	!LO:SIC:s=32ddJJJ)	!	!	!	!	!	!	!	!	!	!	!	!	!	!	!
.	.	.	32dd\JJJ	.	32ff\JJJ)	.	.	.	.	.	.	.	.	.	.	.	.	.
8CC/	3	.	8cc\L	.	16ee\LL	.	8C/	-ſtri	8G/	-ſtri	8e\	-stri	8cc\	-stri	8cc\	.	8ee\	.
.	.	.	.	.	16cc\	.	.	.	.	.	.	.	.	.	.	.	.	.
8C/J	.	.	8g\J	.	16b\	.	8C/	in	8G/	in	8g\	in	8cc\	in	8r	.	8r	.
.	.	.	.	.	16cc\JJ	.	.	.	.	.	.	.	.	.	.	.	.	.
=16	=16	=16	=16	=16	=16	=16	=16	=16	=16	=16	=16	=16	=16	=16	=16	=16	=16	=16
8F\L	6 3	.	8a/L	.	(16cc#X\LL	.	4F\	a-	4A\	a-	4a\	a-	4dd\	a-	1r	.	1r	.
.	.	.	.	.	16dd\J)	.	.	.	.	.	.	.	.	.	.	.	.	.
8F\	.	.	8a/	.	8dd\J|	.	.	.	.	.	.	.	.	.	.	.	.	.
8G\	6 3	.	8b/	.	16r	.	4G\	-tris	4G/	-tris	4b\	-tris	4ee\	-tris	.	.	.	.
.	.	.	.	.	16ee\LL|	.	.	.	.	.	.	.	.	.	.	.	.	.
8G\J	.	.	8b/J	.	16dd\|	.	.	.	.	.	.	.	.	.	.	.	.	.
.	.	.	.	.	16ee\JJ|	.	.	.	.	.	.	.	.	.	.	.	.	.
!	!	!	!	!	!LO:LB:g=original	!	!	!	!	!	!	!	!	!	!	!	!	!
=17	=17	=17	=17	=17	=17	=17	=17	=17	=17	=17	=17	=17	=17	=17	=17	=17	=17	=17
8A\L	6 3	.	8cc\L	.	(16gg\LL	.	4A\	tu-	4A\	tu-	4cc\	tu-	4ff\	tu-	.	.	.	.
.	.	.	.	.	16ff\J)	.	.	.	.	.	.	.	.	.	.	.	.	.
8A\	.	.	8cc\	.	8ff\J|	.	.	.	.	.	.	.	.	.	.	.	.	.
8G\	6 3	.	8b\	.	16r	.	4G\	-is	4B\	-is	4b\	-is	4ee\	-is	.	.	.	.
.	.	.	.	.	16ee\LL|	.	.	.	.	.	.	.	.	.	.	.	.	.
8G\J	.	.	8b\J	.	16ff\|	.	.	.	.	.	.	.	.	.	.	.	.	.
.	.	.	.	.	16ee\JJ|	.	.	.	.	.	.	.	.	.	.	.	.	.
=18	=18	=18	=18	=18	=18	=18	=18	=18	=18	=18	=18	=18	=18	=18	=18	=18	=18	=18
*	*	*	*	*	*	*	*	*ij	*	*ij	*	*ij	*	*ij	*	*	*	*
8F\L	6 3	.	8a/L	.	(16ee\LL	.	4F\	tu-	4A\	tu-	4a\	tu-	4dd\	tu-	8r	.	8r	.
.	.	.	.	.	16dd\J)	.	.	.	.	.	.	.	.	.	.	.	.	.
8F\	.	.	8a/	.	8dd\J|	.	.	.	.	.	.	.	.	.	8dd\L	.	8ff\L	.
8F#X\	6 5	.	8a/	.	16r	.	8F#X\	-is	8A\	-is	8a\	-is	8cc\	-is	8cc\	.	8ee\	.
*	*	*	*	*	*	*	*	*Xij	*	*Xij	*	*Xij	*	*Xij	*	*	*	*
.	.	.	.	.	16cc\LL|	.	.	.	.	.	.	.	.	.	.	.	.	.
8F#\J	_ _	.	8a/J	.	16dd\|	.	8F#\	Je-	8A\	Je-	8a\	Je-	8cc\	Je-	8cc\J	.	8ee\J	.
.	.	.	.	.	16cc\JJ|	.	.	.	.	.	.	.	.	.	.	.	.	.
=19	=19	=19	=19	=19	=19	=19	=19	=19	=19	=19	=19	=19	=19	=19	=19	=19	=19	=19
!LO:TX:t=P:problem=mixed beam	!	!	!LO:SIC:s=(8.eL	!	!LO:SIC:s=(8.ccL	!	!	!	!	!	!	!	!	!	!	!	!	!
8G\L	4	.	8.e/L	.	8.cc\L	.	8.G\	-ru-	8.G/	-ru-	8.e\	-ru-	8.cc\	-ru-	4cc\	.	4ee\	.
8G\	.	.	.	.	.	.	.	.	.	.	.	.	.	.	.	.	.	.
!	!	!	!	!	!LO:SIC:s=32bLL	!	!	!	!	!	!	!	!	!	!	!	!	!
.	.	.	32d/LL	.	(32b\LL	.	16G\	-sa-	16G/	-sa-	16e\	-sa-	16cc\	-sa-	.	.	.	.
!	!	!	!LO:SIC:s=32eJJJ)	!	!	!	!	!	!	!	!	!	!	!	!	!	!	!
.	.	.	32e/JJJ	.	32cc\JJJ)	.	.	.	.	.	.	.	.	.	.	.	.	.
!	!	!	!LO:LB:g=original	!	!	!	!	!	!	!	!	!	!	!	!	!	!	!
8GG/	3	.	8d/L	.	8b\L	.	8G\	-lem	8G/	-lem	8d\	-lem	8b\	-lem	4g/	.	4dd\	.
*	*	*	*	*	*	*	*	*ij	*	*	*	*ij	*	*	*	*	*	*
8G\J	.	.	16d/L	.	16dd\L	.	8G\	Je-	8d\	Je-	8g\	Je-	8b\	Je-	.	.	.	.
.	.	.	16g/JJ	.	16gg\JJ	.	.	.	.	.	.	.	.	.	.	.	.	.
=20	=20	=20	=20	=20	=20	=20	=20	=20	=20	=20	=20	=20	=20	=20	=20	=20	=20	=20
*	*	*	*	*	*	*	*	*	*	*	*	*	*	*	*2\right	*	*	*
!	!	!	!	!	!LO:SIC:s=(16ggLL	!	!	!	!	!	!	!	!	!	!	!	!	!
8A\L	6\ 3	.	(16g/LL	.	16gg\LL	.	8.A\	-ru-	8.d\	-ru-	8.f#X\	-ru-	8.cc\	-ru-	2dd\	.	2dd\	.
!	!	!	!	!	!LO:SIC:s=16ff#J)	!	!	!	!	!	!	!	!	!	!	!	!	!
.	.	.	16f#X/J)	.	16ff#X\J	.	.	.	.	.	.	.	.	.	.	.	.	.
!	!	!	!LO:SIC:s=8f#J	!	!	!	!	!	!	!	!	!	!	!	!	!	!	!
8A\	_ _	.	8f#/J|	.	8ff#\J	.	.	.	.	.	.	.	.	.	.	.	.	.
.	.	.	.	.	.	.	16A\	-ſa-	16d\	-ſa-	16f#\	-sa-	16cc\	-sa-	.	.	.	.
!	!	!	!	!	!	!	!	!	!	!	!	!	!LO:LB:g=original	!	!	!	!	!
8F#X\	6 3	.	16a/LL	.	16aa\LL	.	8F#X\	-lem	8d\	-lem	8a\	-lem	8cc\	-lem	.	.	.	.
*	*	*	*	*	*	*	*	*Xij	*	*	*	*Xij	*	*	*	*	*	*
.	.	.	16f#/	.	16ff#\	.	.	.	.	.	.	.	.	.	.	.	.	.
8F#\J	.	.	16d/	.	16dd\	.	8F#\	que	8d\	que	8a\	que	8cc\	que	.	.	.	.
.	.	.	16c/JJ	.	16cc\JJ	.	.	.	.	.	.	.	.	.	.	.	.	.
!	!	!	!	!	!	!	!	!	!	!	!LO:LB:g=original	!	!	!	!	!	!	!
=21	=21	=21	=21	=21	=21	=21	=21	=21	=21	=21	=21	=21	=21	=21	=21	=21	=21	=21
!	!	!	!LO:SIC:s=(16cLL	!	!LO:SIC:s=(16ccLL	!	!	!	!	!	!	!	!	!	!	!	!	!
8G\L	.	.	16c/LL	.	16cc\LL	.	4G\	ae-	4d\	ae-	4g\	ae-	4b\	ae-	2g/	.	2dd\	.
!	!	!	!LO:SIC:s=16BJ)	!	!LO:SIC:s=16bJ)	!	!	!	!	!	!	!	!	!	!	!	!	!
.	.	.	16B/J	.	16b\J	.	.	.	.	.	.	.	.	.	.	.	.	.
8G\	.	.	8B/J	.	8b\J	.	.	.	.	.	.	.	.	.	.	.	.	.
8B\	6	.	16G/LL	.	16g\LL	.	8B\	-di-	8d\	-di-	8g\	-di-	8dd\	-di-	.	.	.	.
.	.	.	16B/	.	16b\	.	.	.	.	.	.	.	.	.	.	.	.	.
8B\J	.	.	16d/	.	16dd\	.	8B\	-fi-	8d\	-fi-	8g\	-fi-	8dd\	-fi-	.	.	.	.
.	.	.	16g/JJ	.	16gg\JJ	.	.	.	.	.	.	.	.	.	.	.	.	.
!LO:LB:g=original	!	!	!	!	!	!	!	!	!	!	!	!	!	!	!	!	!	!
=22	=22	=22	=22	=22	=22	=22	=22	=22	=22	=22	=22	=22	=22	=22	=22	=22	=22	=22
!	!	!	!LO:SIC:s=(16gLL	!	!LO:SIC:s=(16ggLL	!	!	!	!	!	!	!	!	!	!	!	!	!
8A\L	6\ 3	.	16g/LL	.	16gg\LL	.	4A\	-ca-	4d\	-ca-	4f#X\	-ca-	4cc\	-ca-	2dd\	.	2dd\	.
!	!	!	!LO:SIC:s=16f#J)	!	!LO:SIC:s=16ff#J)	!	!	!	!	!	!	!	!	!	!	!	!	!
.	.	.	16f#X/J	.	16ff#X\J	.	.	.	.	.	.	.	.	.	.	.	.	.
8A\	.	.	8f#/J	.	8ff#\J	.	.	.	.	.	.	.	.	.	.	.	.	.
!	!	!	!	!	!	!	!	!	!LO:LB:g=original	!	!	!	!	!	!	!	!	!
8F#X\	6 5	.	16a/LL	.	16aa\LL	.	8F#X\	-tur	8d\	-tur	8a\	-tur	8cc\	-tur	.	.	.	.
.	.	.	16f#/	.	16ff#\	.	.	.	.	.	.	.	.	.	.	.	.	.
8F#\J	.	.	16d/	.	16dd\	.	8F#\	ut	8d\	ut	8a\	ut	8cc\	ut	.	.	.	.
.	.	.	16c/JJ	.	16cc\JJ	.	.	.	.	.	.	.	.	.	.	.	.	.
=23	=23	=23	=23	=23	=23	=23	=23	=23	=23	=23	=23	=23	=23	=23	=23	=23	=23	=23
!	!	!	!LO:SIC:s=(16cLL	!	!LO:SIC:s=(16ccLL	!	!	!LO:MO:mod=ci-	!	!LO:MO:mod=ci-	!	!LO:MO:mod=ci-	!	!	!	!	!	!
8G\L	.	.	16c/LL	.	16cc\LL	.	8G\	Ci-	8.d\	Ci-	8.g\	Ci-	8b\	ci-	2g/	.	2dd\	.
!	!	!	!LO:SIC:s=16BJ)	!	!LO:SIC:s=16bJ)	!	!	!	!	!	!	!	!	!	!	!	!	!
.	.	.	16B/J	.	16b\J	.	.	.	.	.	.	.	.	.	.	.	.	.
8G\	.	.	8B/J	.	8b\J	.	8G\	-vi-	.	.	.	.	8b\	-vi-	.	.	.	.
.	.	.	.	.	.	.	.	.	16d\	-vi-	16g\	-vi-	.	.	.	.	.	.
!	!	!	!	!	!	!	!LO:LB:g=original	!	!	!	!	!	!	!	!	!	!	!
8B\	6	.	8d/L	.	16r	.	8B\	-tas	8d\	-tas	8g\	-tas	8dd\	-tas	.	.	.	.
.	.	.	.	.	16dd\LL	.	.	.	.	.	.	.	.	.	.	.	.	.
!	!	!	!	!	!	!	!	!	!	!	!	!LO:MO:mod=cu-	!	!	!	!	!	!
8B\J	.	.	8d/J	.	16gg\	.	8B\	cu-	8d\	cu-	8g\	Cu-	8dd\	cu-	.	.	.	.
.	.	.	.	.	16ffn\JJ	.	.	.	.	.	.	.	.	.	.	.	.	.
!	!	!	!	!	!LO:LB:g=original	!	!	!	!	!	!	!	!	!	!	!	!LO:LB:g=original	!
=24	=24	=24	=24	=24	=24	=24	=24	=24	=24	=24	=24	=24	=24	=24	=24	=24	=24	=24
*tremolo	*	*	*	*	*	*	*	*	*	*	*	*	*	*	*	*	*	*
8c\L	.	.	8g/L	.	(16ff\LL	.	8c\	-ius	8c\	-ius	8g\	-ius	8ee\	-ius	2cc\	.	2ee\	.
.	.	.	.	.	16ee\J)	.	.	.	.	.	.	.	.	.	.	.	.	.
8c\	.	.	8g/	.	(8.ee\J	.	8c\	par-	8c\	par-	8g\	par-	8ee\	par-	.	.	.	.
8c\	.	.	8g/	.	.	.	8c\	-ti-	8c\	-ti-	8g\	-ti-	8ee\	-ti-	.	.	.	.
.	.	.	.	.	16ff#X\LL)	.	.	.	.	.	.	.	.	.	.	.	.	.
8c\J	.	.	8g/J	.	(16gg\	.	8c\	-ci-	8c\	-ti	8g\	-ci-	8ee\	-ci-	.	.	.	.
.	.	.	.	.	16ee\JJ)	.	.	.	.	.	.	.	.	.	.	.	.	.
!	!	!	!	!	!	!	!	!	!	!	!	!	!	!	!LO:LB:g=original	!	!	!
=25	=25	=25	=25	=25	=25	=25	=25	=25	=25	=25	=25	=25	=25	=25	=25	=25	=25	=25
*	*	*	*tremolo	*	*	*	*	*	*	*	*	*	*	*	*	*	*	*
8B\L	6	.	8g/L	.	(16ee\LL	.	4B\	pa-	4d\	pa-	4g\	-pa-	4dd\	-pa-	2g/	.	2dd\	.
.	.	.	.	.	16dd\J)	.	.	.	.	.	.	.	.	.	.	.	.	.
8B\	.	.	8g/	.	(8.dd\J	.	.	.	.	.	.	.	.	.	.	.	.	.
8B\	.	.	8g/	.	.	.	8B\	-ti-	8d\	-ti-	8g\	-ti-	8dd\	-ti-	.	.	.	.
.	.	.	.	.	16ee\LL)	.	.	.	.	.	.	.	.	.	.	.	.	.
8B\J	.	.	8g/J	.	(16ff#X\	.	8B\	-o	8d\	-o	8g\	-o	8dd\	-o	.	.	.	.
.	.	.	.	.	16gg\JJ)	.	.	.	.	.	.	.	.	.	.	.	.	.
*Xtremolo	*	*	*Xtremolo	*	*	*	*	*	*	*	*	*	*	*	*	*	*	*
=26	=26	=26	=26	=26	=26	=26	=26	=26	=26	=26	=26	=26	=26	=26	=26	=26	=26	=26
8A\L	6\ 3	.	8cc/L	.	16gg\LL	.	4A\	in	4d\	in	4f#X\	in	4cc\	in	2dd\	.	2dd\	.
.	.	.	.	.	16ff#X\J	.	.	.	.	.	.	.	.	.	.	.	.	.
8A\	.	.	8cc/	.	8ff#\J	.	.	.	.	.	.	.	.	.	.	.	.	.
8F#X\	6 5	.	8a/	.	16aa\LL	.	4F#X\	id-	4d\	id-	4a\	id-	4cc\	id-	.	.	.	.
.	.	.	.	.	16ff#\	.	.	.	.	.	.	.	.	.	.	.	.	.
8F#\J	.	.	8a/J	.	16dd\	.	.	.	.	.	.	.	.	.	.	.	.	.
.	.	.	.	.	16cc\JJ	.	.	.	.	.	.	.	.	.	.	.	.	.
=27	=27	=27	=27	=27	=27	=27	=27	=27	=27	=27	=27	=27	=27	=27	=27	=27	=27	=27
!LO:TX:t=P:problem=mixed beam	!	!	!	!	!	!	!LO:TX:t=P:problem=mixed beam	!	!	!	!	!	!	!	!	!	!	!
8G\L	.	.	16g/LL	.	16b\LL	.	8G\L	-ip-	8d\L	-ip-	8a\L	-ip-	8dd\L	-ip-	8g\L	.	8dd\L	.
.	.	.	16b/	.	16dd\	.	.	.	.	.	.	.	.	.	.	.	.	.
8c\	6	.	16cc/	.	16ee\	.	8c\	.	8e\J	.	16cc\L	.	16ee\L	.	8cc\	.	8ee\	.
.	.	.	16a/JJ	.	16cc\JJ	.	.	.	.	.	16a\JJ	.	16cc\JJ	.	.	.	.	.
!	!	!	!	!	!	!	!	!	!	!	!LO:LB:g=original	!	!	!	!	!	!	!
8d\	4	.	8g/L	.	8b\L	.	8d\	.	4d\	.	8g\L	.	8b\L	.	8dd\	.	8dd\	.
8D/J	#	.	8f#X/J	.	8a\J	.	8D/J	.	.	.	8f#X\J	.	8a\J	.	8dd\J	.	8dd\J	.
!	!	!	!LO:LB:g=original	!	!	!	!	!	!	!	!	!	!LO:LB:g=original	!	!	!	!	!
=28	=28	=28	=28	=28	=28	=28	=28	=28	=28	=28	=28	=28	=28	=28	=28	=28	=28	=28
!LO:MO:mod=!LO&colon;TX&colon;i&colon;t=Solo	!	!	!LO:MO:mod=!LO&colon;TX&colon;i&colon;t=Solo	!	!LO:MO:mod=!LO&colon;TX&colon;i&colon;t=Solo	!	!	!	!	!	!	!	!	!	!	!	!	!
!LO:TX:a:t=Solo	!	!	!LO:TX:a:t=Solo	!	!LO:TX:a:t=Solo	!	!	!	!	!	!	!	!	!	!	!	!	!
!	!	!	!LO:SIC:s=(16gLL	!	!	!	!	!	!	!	!	!	!	!	!	!	!	!
4G\	.	.	16g/LL	.	(16b\LL	.	4G\	-sum	4d\	-sum	4g\	-sum	4b\	-sum	4g/	.	4dd\	.
!	!	!	!LO:SIC:s=16dJ)	!	!	!	!	!	!	!	!	!	!	!	!	!	!	!
.	.	.	16d/J	.	16dd\J)	.	.	.	.	.	.	.	.	.	.	.	.	.
.	.	.	8d/J|	.	8dd\J|	.	.	.	.	.	.	.	.	.	.	.	.	.
4A\	6\	.	16r	.	16r	.	4r	.	4r	.	4r	.	4r	.	4r	.	4r	.
.	.	.	16d'/LL	.	16dd'\LL	.	.	.	.	.	.	.	.	.	.	.	.	.
.	.	.	16e'/	.	16ee'\	.	.	.	.	.	.	.	.	.	.	.	.	.
.	.	.	16f#X'/JJ	.	16ff#X'\JJ	.	.	.	.	.	.	.	.	.	.	.	.	.
=29	=29	=29	=29	=29	=29	=29	=29	=29	=29	=29	=29	=29	=29	=29	=29	=29	=29	=29
4B\	6	.	(16f#X/LL	.	(16ff#X\LL	.	0r	.	0r	.	0r	.	0r	.	1r	.	1r	.
.	.	.	16g/J)	.	16gg\J)	.	.	.	.	.	.	.	.	.	.	.	.	.
.	.	.	8g/J|	.	8gg\J|	.	.	.	.	.	.	.	.	.	.	.	.	.
4c\	6 3	.	16r	.	16r	.	.	.	.	.	.	.	.	.	.	.	.	.
.	.	.	16e/LL|	.	16ee\LL|	.	.	.	.	.	.	.	.	.	.	.	.	.
.	x 5	.	16a/|	.	16aa\|	.	.	.	.	.	.	.	.	.	.	.	.	.
.	.	.	16g/JJ|	.	16gg\JJ|	.	.	.	.	.	.	.	.	.	.	.	.	.
=30	=30	=30	=30	=30	=30	=30	=30	=30	=30	=30	=30	=30	=30	=30	=30	=30	=30	=30
4d\	#	.	(16g/LL	.	(16gg\LL	.	.	.	.	.	.	.	.	.	.	.	.	.
.	.	.	16f#X/J)	.	16ff#X\J)	.	.	.	.	.	.	.	.	.	.	.	.	.
.	.	.	8f#/J|	.	8ff#\J|	.	.	.	.	.	.	.	.	.	.	.	.	.
4c\	_	.	16r	.	16r	.	.	.	.	.	.	.	.	.	.	.	.	.
.	.	.	16d/LL|	.	16dd\LL|	.	.	.	.	.	.	.	.	.	.	.	.	.
.	.	.	16e/|	.	16ee\|	.	.	.	.	.	.	.	.	.	.	.	.	.
.	.	.	16f#/JJ|	.	16ff#\JJ|	.	.	.	.	.	.	.	.	.	.	.	.	.
!	!	!	!	!	!LO:LB:g=original	!	!	!	!	!	!	!	!	!	!	!	!	!
=31	=31	=31	=31	=31	=31	=31	=31	=31	=31	=31	=31	=31	=31	=31	=31	=31	=31	=31
4B\	6	.	(16f#X/LL	.	(16ff#X\LL	.	.	.	.	.	.	.	.	.	2r	.	2r	.
.	.	.	16g/J)	.	16gg\J)	.	.	.	.	.	.	.	.	.	.	.	.	.
.	.	.	8g/J|	.	8gg\J|	.	.	.	.	.	.	.	.	.	.	.	.	.
4B\	_	.	16r	.	16r	.	.	.	.	.	.	.	.	.	.	.	.	.
.	.	.	(16g/LL	.	(16gg\LL	.	.	.	.	.	.	.	.	.	.	.	.	.
.	.	.	16f#X/	.	16ff#\	.	.	.	.	.	.	.	.	.	.	.	.	.
.	.	.	16fn/JJ)	.	16ffn\JJ)	.	.	.	.	.	.	.	.	.	.	.	.	.
=32	=32	=32	=32	=32	=32	=32	=32	=32	=32	=32	=32	=32	=32	=32	=32	=32	=32	=32
4c\	6	.	8e/L	.	8ee\L	.	.	.	.	.	.	.	.	.	8r	.	8r	.
!	!	!	!LO:TUP:b:problem=klamra łukowa i cyfra	!	!LO:TUP:a:problem=klamra łukowa i cyfra	!	!	!	!	!	!	!	!	!	!	!	!	!
.	.	.	24cc/L	.	24ee\L	.	.	.	.	.	.	.	.	.	8cc\L	.	8ee\L	.
.	.	.	24b/	.	24dd\	.	.	.	.	.	.	.	.	.	.	.	.	.
.	.	.	24a/JJ	.	24cc\JJ	.	.	.	.	.	.	.	.	.	.	.	.	.
!LO:TX:t=P:problem=mixed beam	!	!	!	!	!	!	!	!	!	!	!	!	!	!	!	!	!	!
8d\L	4	.	8g/L	.	8b\L	.	.	.	.	.	.	.	.	.	8dd\	.	8dd\	.
8D/J	#	.	8f#X/J	.	8a\J	.	.	.	.	.	.	.	.	.	8dd\J	.	8dd\J	.
=33	=33	=33	=33	=33	=33	=33	=33	=33	=33	=33	=33	=33	=33	=33	=33	=33	=33	=33
!	!	!	!	!	!	!	!	!	!	!	!LO:MO:mod=!LO&colon;TX&colon;i&colon;t=Solo	!	!LO:MO:mod=!LO&colon;TX&colon;i&colon;t=Solo	!	!	!	!	!
!	!	!LO:DY:a	!	!LO:DY:a	!	!LO:DY:a	!	!	!	!	!LO:TX:a:t=Solo	!	!LO:TX:a:t=Solo	!LO:MO:mod=Il-	!	!	!	!
8G\L	.	p	8g/L	p	8b\L	p	0r	.	0r	.	4.g\	Il-	4.b\	il-	4g/	.	4dd\	.
8G\	.	.	8g/	.	8b\	.	.	.	.	.	.	.	.	.	.	.	.	.
8G\	.	.	8g/	.	8b\	.	.	.	.	.	.	.	.	.	4r	.	4r	.
8G\J	4 2	.	8g/J	.	8cc\J	.	.	.	.	.	16a\LL	-luc	16cc\LL	-luc	.	.	.	.
.	.	.	.	.	.	.	.	.	.	.	16f#X\JJ	.	16a\JJ	.	.	.	.	.
=34	=34	=34	=34	=34	=34	=34	=34	=34	=34	=34	=34	=34	=34	=34	=34	=34	=34	=34
8r	.	.	8r	.	8r	.	.	.	.	.	4.g\	e-	4.b\	e-	0r	.	0r	.
8G\L	3	.	8g/L	.	8b\L	.	.	.	.	.	.	.	.	.	.	.	.	.
8G\	.	.	8g/	.	8b\	.	.	.	.	.	.	.	.	.	.	.	.	.
8G\J	4 2	.	8a/J	.	8cc\J	.	.	.	.	.	8a\	-nim	8cc\	-nim	.	.	.	.
!LO:LB:g=original	!	!	!	!	!	!	!	!	!	!	!	!	!	!	!	!	!	!
=35	=35	=35	=35	=35	=35	=35	=35	=35	=35	=35	=35	=35	=35	=35	=35	=35	=35	=35
8r	.	.	8r	.	8r	.	.	.	.	.	4.b\	aſ-	4.dd\	as-	.	.	.	.
8G\L	3	.	8b\L	.	8dd\L	.	.	.	.	.	.	.	.	.	.	.	.	.
8G\	.	.	8b\	.	8dd\	.	.	.	.	.	.	.	.	.	.	.	.	.
8G\J	6 4	.	8cc\J	.	8dd\J	.	.	.	.	.	8cc\	-cen-	8ee\	-cen-	.	.	.	.
!	!	!	!LO:LB:g=original	!	!	!	!	!	!	!	!	!	!	!	!	!	!	!
=36	=36	=36	=36	=36	=36	=36	=36	=36	=36	=36	=36	=36	=36	=36	=36	=36	=36	=36
8r	.	.	8r	.	8r	.	.	.	.	.	8.b\L	-de-	8.dd\L	-de-	.	.	.	.
8G\L	3	.	8b\L	.	8dd\L	.	.	.	.	.	.	.	.	.	.	.	.	.
.	.	.	.	.	.	.	.	.	.	.	16a\Jk	.	16cc\Jk	.	.	.	.	.
8G\	_	.	8b\	.	8dd\	.	.	.	.	.	4g\	-runt	4b\	-runt	.	.	.	.
8G\J	x	.	8b\J	.	8dd\J	.	.	.	.	.	.	.	.	.	.	.	.	.
=37	=37	=37	=37	=37	=37	=37	=37	=37	=37	=37	=37	=37	=37	=37	=37	=37	=37	=37
8r	.	.	8r	.	8r	.	0r	.	0r	.	8.a\L	tri-	8.cc\L	tri-	.	.	.	.
8c\L	6	.	8a/L	.	8cc\L	.	.	.	.	.	.	.	.	.	.	.	.	.
.	.	.	.	.	.	.	.	.	.	.	16b\Jk	.	16dd\Jk	.	.	.	.	.
8c\	_	.	8a/	.	8cc\	.	.	.	.	.	8a\	.	8cc\	.	.	.	.	.
8c#X\J	5	.	8g/J	.	8b\J	.	.	.	.	.	8g\	-bus	8b\	-bus	.	.	.	.
=38	=38	=38	=38	=38	=38	=38	=38	=38	=38	=38	=38	=38	=38	=38	=38	=38	=38	=38
8d\L	4	.	8r	.	8r	.	.	.	.	.	8.g\	Do-	8.b\	Do-	0r	.	0r	.
8D\	_	.	8g/L	.	8b/L	.	.	.	.	.	.	.	.	.	.	.	.	.
.	.	.	.	.	.	.	.	.	.	.	16g\	-mi-	16b\	-mi-	.	.	.	.
8D\	#	.	8f#X/	.	8a/	.	.	.	.	.	8f#X\	-ni	8a\	-ni	.	.	.	.
8D\J	_	.	8f#/J	.	8a/J	.	.	.	.	.	8r	.	8r	.	.	.	.	.
!	!	!	!	!	!	!	!	!	!	!	!LO:LB:g=original	!	!	!	!	!	!	!
=39	=39	=39	=39	=39	=39	=39	=39	=39	=39	=39	=39	=39	=39	=39	=39	=39	=39	=39
8r	x	.	8r	.	8r	.	.	.	.	.	4.f#X\	teſ-	4.a\	teſ-	.	.	.	.
8D\L	#	.	8f#X/L	.	8a/L	.	.	.	.	.	.	.	.	.	.	.	.	.
8D\	.	.	8f#/	.	8a/	.	.	.	.	.	.	.	.	.	.	.	.	.
8D\J	6 4	.	8g/J	.	8b/J	.	.	.	.	.	8g\	-ti-	8b\	-ti-	.	.	.	.
!	!	!	!	!	!LO:LB:g=original	!	!	!	!	!	!	!	!	!	!	!	!	!
=40	=40	=40	=40	=40	=40	=40	=40	=40	=40	=40	=40	=40	=40	=40	=40	=40	=40	=40
8r	.	.	8r	.	8r	.	.	.	.	.	4.a\	-mo-	4.cc\	-mo-	.	.	.	.
8D\L	7 #	.	8f#X/L	.	8a/L	.	.	.	.	.	.	.	.	.	.	.	.	.
8D\	_ _	.	8f#/	.	8a/	.	.	.	.	.	.	.	.	.	.	.	.	.
8D\J	x	.	8f#/J	.	8a/J	.	.	.	.	.	16b\LL	-ni-	16dd\LL	-ni-	.	.	.	.
.	.	.	.	.	.	.	.	.	.	.	16a\JJ	.	16cc\JJ	.	.	.	.	.
!	!	!	!	!	!	!	!	!	!	!	!	!	!LO:LB:g=original	!	!	!	!	!
=41	=41	=41	=41	=41	=41	=41	=41	=41	=41	=41	=41	=41	=41	=41	=41	=41	=41	=41
8r	.	.	8r	.	8r	.	0r	.	0r	.	4.g\	-um	4.b\	-um	.	.	.	.
8G\L	3	.	8g/L	.	8b\L	.	.	.	.	.	.	.	.	.	.	.	.	.
8G\	_	.	8g/	.	8b\	.	.	.	.	.	.	.	.	.	.	.	.	.
!	!	!	!	!	!	!	!	!	!	!	!LO:SIC:s=(8a	!	!	!	!	!	!	!
8G\J	4 2	.	8a/J	.	8cc\J	.	.	.	.	.	8a\	Is-	(8cc\	Is-	.	.	.	.
=42	=42	=42	=42	=42	=42	=42	=42	=42	=42	=42	=42	=42	=42	=42	=42	=42	=42	=42
!	!	!	!	!	!	!	!	!	!	!	!LO:SIC:s=4.b)	!	!	!	!	!	!	!
8r	.	.	8r	.	8r	.	.	.	.	.	4.b\	.	4.dd\)	.	0r	.	0r	.
8G\L	3	.	8g/L	.	8b\L	.	.	.	.	.	.	.	.	.	.	.	.	.
8G\	_	.	8g/	.	8b\	.	.	.	.	.	.	.	.	.	.	.	.	.
8G\J	.	.	8g/J	.	8b\J	.	.	.	.	.	16cc\LL	-ra-	16ee\LL	-ra-	.	.	.	.
.	.	.	.	.	.	.	.	.	.	.	16b\JJ	.	16dd\JJ	.	.	.	.	.
=43	=43	=43	=43	=43	=43	=43	=43	=43	=43	=43	=43	=43	=43	=43	=43	=43	=43	=43
4D\	7 #	.	4f#X/	.	4a/	.	.	.	.	.	8.a\	-el	8.cc\	-el	.	.	.	.
.	.	.	.	.	.	.	.	.	.	.	32a\LLL	ad	32cc\LLL	ad	.	.	.	.
.	.	.	.	.	.	.	.	.	.	.	32b\JJJ	.	32dd\JJJ	.	.	.	.	.
!	!	!	!	!	!	!	!	!	!	!	!	!LO:MO:mod=con-	!	!LO:MO:mod=con-	!	!	!	!
4r	.	.	4r	.	4r	.	.	.	.	.	8a\	Con-	8cc\	Con-	.	.	.	.
.	.	.	.	.	.	.	.	.	.	.	8a\	-fi-	8cc\	-fi-	.	.	.	.
=44	=44	=44	=44	=44	=44	=44	=44	=44	=44	=44	=44	=44	=44	=44	=44	=44	=44	=44
8r	.	.	8r	.	8r	.	.	.	.	.	4.a\	-ten-	4.cc\	-ten-	.	.	.	.
8F#X\L	6 5	.	8a/L	.	8cc\L	.	.	.	.	.	.	.	.	.	.	.	.	.
8F#\	_ _	.	8a/	.	8cc\	.	.	.	.	.	.	.	.	.	.	.	.	.
8F#\J	x	.	8a/J	.	8cc\J	.	.	.	.	.	16b\LL	-dum	16dd\LL	-dum	.	.	.	.
.	.	.	.	.	.	.	.	.	.	.	16a\JJ	.	16cc\JJ	.	.	.	.	.
=45	=45	=45	=45	=45	=45	=45	=45	=45	=45	=45	=45	=45	=45	=45	=45	=45	=45	=45
8G\L	.	.	8g/L	.	8b\L	.	0r	.	0r	.	8g\L	no-	8b\L	no-	.	.	.	.
8G\	.	.	16a/L	.	16cc\L	.	.	.	.	.	16a\L	.	16cc\L	.	.	.	.	.
.	.	.	16b/JJ	.	16dd\JJ	.	.	.	.	.	16b\JJ	.	16dd\JJ	.	.	.	.	.
8c\	6	.	8cc/L	.	8ee\L	.	.	.	.	.	8cc\	-mi-	8ee\	-mi-	.	.	.	.
8c\J	.	.	8a/J	.	8cc\J	.	.	.	.	.	8a\	-ni	8cc\	-ni	.	.	.	.
!LO:LB:g=original	!	!	!	!	!	!	!	!	!	!	!	!	!	!	!	!	!	!
=46	=46	=46	=46	=46	=46	=46	=46	=46	=46	=46	=46	=46	=46	=46	=46	=46	=46	=46
8d\L	4	.	4g/	.	4b/	.	.	.	.	.	4g\	Do-	4b\	Do-	1r	.	1r	.
8d\	.	.	.	.	.	.	.	.	.	.	.	.	.	.	.	.	.	.
8D\	#	.	4f#X/	.	4a/	.	.	.	.	.	4f#X\	-mi-	4a\	-mi-	.	.	.	.
8D\J	.	.	.	.	.	.	.	.	.	.	.	.	.	.	.	.	.	.
!	!	!	!LO:LB:g=original	!	!	!	!	!	!	!	!LO:LB:g=original	!	!	!	!	!	!	!
=47	=47	=47	=47	=47	=47	=47	=47	=47	=47	=47	=47	=47	=47	=47	=47	=47	=47	=47
!	!	!	!	!	!LO:MO:mod=!LO&colon;TX&colon;i&colon;t=Solo	!	!	!	!	!	!	!	!	!	!	!	!	!
!	!	!	!	!	!LO:TX:a:t=Solo	!	!	!	!	!	!	!	!	!	!	!	!	!
4G\	.	.	4g/	.	8.b\L	.	.	.	.	.	4g\	-ni	4b\	-ni	.	.	.	.
.	.	.	.	.	16cc\Jk	.	.	.	.	.	.	.	.	.	.	.	.	.
8r	.	.	8r	.	16dd'\LL	.	.	.	.	.	4r	.	4r	.	.	.	.	.
.	.	.	.	.	16ee'\	.	.	.	.	.	.	.	.	.	.	.	.	.
!	!	!	!LO:MO:mod=!LO&colon;TX&colon;i&colon;t=Solo	!	!	!	!	!	!	!	!	!	!	!	!	!	!	!
!	!	!	!LO:TX:a:t=Solo	!	!	!	!	!	!	!	!	!	!	!	!	!	!	!
8G\	.	.	8b\	.	16ff#X'\	.	.	.	.	.	.	.	.	.	.	.	.	.
.	.	.	.	.	16gg'\JJ	.	.	.	.	.	.	.	.	.	.	.	.	.
=48	=48	=48	=48	=48	=48	=48	=48	=48	=48	=48	=48	=48	=48	=48	=48	=48	=48	=48
4A\	6\ 3	.	4cc\	.	(16gg\LL	.	.	.	.	.	1r	.	1r	.	2r	.	2r	.
.	.	.	.	.	16ff#X\J)	.	.	.	.	.	.	.	.	.	.	.	.	.
.	.	.	.	.	8ff#\J|	.	.	.	.	.	.	.	.	.	.	.	.	.
4F#X\	6 5	.	4a/	.	(16aa\LL	.	.	.	.	.	.	.	.	.	.	.	.	.
.	.	.	.	.	16ff#\)	.	.	.	.	.	.	.	.	.	.	.	.	.
.	.	.	.	.	(16dd\	.	.	.	.	.	.	.	.	.	.	.	.	.
.	.	.	.	.	16cc\JJ)	.	.	.	.	.	.	.	.	.	.	.	.	.
=49	=49	=49	=49	=49	=49	=49	=49	=49	=49	=49	=49	=49	=49	=49	=49	=49	=49	=49
!	!	!	!	!	!LO:SIC:s=(16ccLL	!	!	!	!	!	!	!	!	!	!	!	!	!
4G\	.	.	4b/	.	16cc\LL	.	1r	.	1r	.	.	.	.	.	4r	.	4r	.
!	!	!	!	!	!LO:SIC:s=16bJ)	!	!	!	!	!	!	!	!	!	!	!	!	!
.	.	.	.	.	16b\J	.	.	.	.	.	.	.	.	.	.	.	.	.
!	!	!	!	!	!LO:SIC:s=(8.ggJ	!	!	!	!	!	!	!	!	!	!	!	!	!
.	.	.	.	.	8.gg\J	.	.	.	.	.	.	.	.	.	.	.	.	.
4B\	6	.	4g/	.	.	.	.	.	.	.	.	.	.	.	8r	.	8r	.
!	!	!	!	!	!LO:LB:g=original	!	!	!	!	!	!	!	!	!	!	!	!	!
!	!	!	!	!	!LO:SIC:s=16ffLL)	!	!	!	!	!	!	!	!	!	!	!	!	!
.	.	.	.	.	16ff\LL	.	.	.	.	.	.	.	.	.	.	.	.	.
.	.	.	.	.	(16ee\	.	.	.	.	.	.	.	.	.	8g/	.	8dd\	.
.	.	.	.	.	16dd\JJ)	.	.	.	.	.	.	.	.	.	.	.	.	.
=50	=50	=50	=50	=50	=50	=50	=50	=50	=50	=50	=50	=50	=50	=50	=50	=50	=50	=50
4c\	6	.	8a/L	.	8ee\L	.	.	.	.	.	2r	.	2r	.	4cc\	.	4ee\	.
!	!	!	!	!	!LO:TUP:a:problem=klamra łukowa i cyfra	!	!	!	!	!	!	!	!	!	!	!	!	!
.	.	.	16cc/L	.	24ee\L	.	.	.	.	.	.	.	.	.	.	.	.	.
.	.	.	.	.	24dd\	.	.	.	.	.	.	.	.	.	.	.	.	.
.	.	.	16a/JJ	.	.	.	.	.	.	.	.	.	.	.	.	.	.	.
.	.	.	.	.	24cc\JJ	.	.	.	.	.	.	.	.	.	.	.	.	.
!LO:TX:t=P:problem=mixed beam	!	!	!	!	!	!	!	!	!	!	!	!	!	!	!	!	!	!
8d\L	4	.	8g/L	.	8b\L	.	.	.	.	.	.	.	.	.	4dd\	.	4dd\	.
8D/J	#	.	8f#X/J	.	8a\J	.	.	.	.	.	.	.	.	.	.	.	.	.
=51	=51	=51	=51	=51	=51	=51	=51	=51	=51	=51	=51	=51	=51	=51	=51	=51	=51	=51
!	!	!LO:MO:null:mod=!LO&colon;DY&colon;ed=brack	!	!	!	!	!	!	!	!	!	!	!	!	!	!	!	!
!LO:MO:mod=!LO&colon;TX&colon;i&colon;t=Tutti	!	!	!	!	!	!	!	!	!	!	!	!	!	!	!	!	!	!
!LO:TX:a:t=tutti	!	!LO:MO:null:mod=f	!	!LO:DY:a	!	!LO:DY:a	!	!LO:MO:mod=Qui-	!	!LO:MO:mod=Qui-	!	!	!	!	!	!	!	!
8G\L	3	.	8d/L	f	4.b\	f	8G\	qui-	8G/	qui-	8d\	Qui-	8b\	Qui-	2g/	.	2dd\	.
8G\	_	.	8d/	.	.	.	8G\	-a	8G/	-a	8d\	-a	8b\	-a	.	.	.	.
!	!	!	!	!	!	!	!	!	!LO:LB:g=original	!	!	!	!	!	!	!	!	!
8F#X\	.	.	8d/	.	.	.	8Fn\	il-	8G/	il-	8d\	il-	8b\	il-	.	.	.	.
!	!	!	!	!	!	!	!	!	!	!LO:MO:mod=-lic	!	!	!	!	!	!	!	!
8F#\J	.	.	8d/J	.	16dd\LL	.	8F\	-lic	8G/	-luc	8d\	-lic	8b\	-lic	.	.	.	.
.	x	.	.	.	16b\JJ	.	.	.	.	.	.	.	.	.	.	.	.	.
!	!	!	!	!	!	!	!	!	!	!	!	!	!LO:LB:g=original	!	!	!	!	!
=52	=52	=52	=52	=52	=52	=52	=52	=52	=52	=52	=52	=52	=52	=52	=52	=52	=52	=52
8E/L	6	.	8g/L	.	4.cc\	.	4E\	ſe-	4G/	ſe-	4e\	ſe-	4cc\	ſe-	2cc\	.	2ee\	.
8E/	_	.	8g/	.	.	.	.	.	.	.	.	.	.	.	.	.	.	.
8C/	.	.	8g/	.	.	.	8C/	-de-	8G/	-de-	8e\	-de-	8cc\	-de-	.	.	.	.
8C/J	x	.	8e/J	.	16ee\LL	.	8C/	-runt	8G/	-runt	8e\	-runt	8cc\	-runt	.	.	.	.
.	.	.	.	.	16gg\JJ	.	.	.	.	.	.	.	.	.	.	.	.	.
!	!	!	!	!	!	!	!LO:LB:g=original	!	!	!	!	!	!	!	!	!	!	!
=53	=53	=53	=53	=53	=53	=53	=53	=53	=53	=53	=53	=53	=53	=53	=53	=53	=53	=53
!	!	!	!LO:TX:t=P:problem=mixed beam	!	!	!	!	!	!	!	!	!	!	!	!	!	!	!
8BB/L	6 5	.	8d/L	.	8.gg\L	.	8BB/	ſe-	8G/	ſe-	8f\	ſe-	8.dd\	ſe-	2dd\	.	2ff\	.
8BB/	_ _	.	8d/	.	.	.	8BB/	-des	8G/	-des	8f\	-des	.	.	.	.	.	.
.	.	.	.	.	16ff\Jk	.	.	.	.	.	.	.	16dd\	-des	.	.	.	.
8GG/	.	.	8b\	.	16dd\LL	.	8GG/	in	8G/	in	8f\	in	8dd\	in	.	.	.	.
.	.	.	.	.	16ee\	.	.	.	.	.	.	.	.	.	.	.	.	.
!	!	!	!	!	!	!	!	!LO:MO:mod=ju-	!	!LO:MO:mod=ju-	!	!LO:MO:mod=ju-	!	!LO:MO:mod=ju-	!	!	!	!
8GG/J	x	.	8b\J	.	16ff\	.	8G\	Ju-	8G/	Ju-	8f\	Ju-	8dd\	Ju-	.	.	.	.
.	.	.	.	.	16gg\JJ	.	.	.	.	.	.	.	.	.	.	.	.	.
=54	=54	=54	=54	=54	=54	=54	=54	=54	=54	=54	=54	=54	=54	=54	=54	=54	=54	=54
!LO:TX:t=P:problem=mixed beam	!	!	!	!	!	!	!	!	!	!	!	!	!	!	!	!	!	!
8C/L	4	.	8.dd\L	.	8.ff\L	.	8.c\	-di-	8.G/	-di-	8.f\	-di-	8.dd\	-di-	4dd\	.	4ff\	.
8C/	.	.	.	.	.	.	.	.	.	.	.	.	.	.	.	.	.	.
.	.	.	32cc\LL	.	32ee\LL	.	16C/	-ci-	16G/	-ci-	16f\	-ci-	16dd\	-ci-	.	.	.	.
.	.	.	32dd\JJJ	.	32ff\JJJ	.	.	.	.	.	.	.	.	.	.	.	.	.
!	!	!	!LO:TX:t=P:problem=mixed beam	!	!	!	!	!	!	!	!	!	!	!	!	!	!	!
8C/	3	.	8cc\L	.	16ee\LL	.	8C/	-o	8G/	-o	8e\	-o	8cc\	-o	4cc\	.	8ee\L	.
.	.	.	.	.	16cc\	.	.	.	.	.	.	.	.	.	.	.	.	.
!	!	!	!	!	!	!	!	!	!	!	!LO:SIC:s=(8g	!	!LO:SIC:s=(8ee	!	!	!	!	!
8c\J	.	.	8e/J	.	16ee\	.	(<8c\	ſe-	[8G/	ſe-	8g\	ſe-	8ee\	ſe-	.	.	8gg\J	.
.	.	.	.	.	16gg\JJ	.	.	.	.	.	.	.	.	.	.	.	.	.
=55	=55	=55	=55	=55	=55	=55	=55	=55	=55	=55	=55	=55	=55	=55	=55	=55	=55	=55
!	!	!	!	!	!LO:SIC:s=(16ggLL	!	!	!	!	!	!LO:SIC:s=4f)	!	!LO:SIC:s=4dd)	!	!	!	!	!
8B\L	6 5	.	(16d/LL	.	16gg\LL	.	4B\)	.	4G/]	.	4f\	.	4dd\	.	2g/	.	2gg\	.
!	!	!	!	!	!LO:SIC:s=16ffJ)	!	!	!	!	!	!	!	!	!	!	!	!	!
.	.	.	16g/)	.	16ff\J	.	.	.	.	.	.	.	.	.	.	.	.	.
8B\	.	.	(16d/	.	(8.ff\J	.	.	.	.	.	.	.	.	.	.	.	.	.
.	.	.	16g/JJ)	.	.	.	.	.	.	.	.	.	.	.	.	.	.	.
8c\	3	.	(16e/LL	.	.	.	(<4c\	-det	4G/	-det	4e\	-dent	4cc\	-dent	.	.	.	.
.	.	.	16g/)	.	16ee\LL)	.	.	.	.	.	.	.	.	.	.	.	.	.
8c\J	_	.	(16e/	.	(16dd\	.	.	.	.	.	.	.	.	.	.	.	.	.
.	.	.	16g/JJ)	.	16cc\JJ)	.	.	.	.	.	.	.	.	.	.	.	.	.
=56	=56	=56	=56	=56	=56	=56	=56	=56	=56	=56	=56	=56	=56	=56	=56	=56	=56	=56
8d\L	6 3	.	(16f/LL	.	(16cc\LL	.	4d\)	ſu-	4G/	ſu-	4f\	ſu-	4b\	ſu-	2g/	.	2gg\	.
.	.	.	16g/)	.	16b\J)	.	.	.	.	.	.	.	.	.	.	.	.	.
8d\	_ _	.	(16f/	.	(8.b\J	.	.	.	.	.	.	.	.	.	.	.	.	.
.	.	.	16g/JJ)	.	.	.	.	.	.	.	.	.	.	.	.	.	.	.
8c\	3	.	(16e/LL	.	.	.	4c\	-per	4G/	-per	4e\	-per	4cc\	-per	.	.	.	.
.	.	.	16g/)	.	16cc\LL)	.	.	.	.	.	.	.	.	.	.	.	.	.
8c\J	.	.	(16e/	.	(16dd\	.	.	.	.	.	.	.	.	.	.	.	.	.
.	.	.	16g/JJ)	.	16ee\JJ)	.	.	.	.	.	.	.	.	.	.	.	.	.
!	!	!	!LO:LB:g=original	!	!	!	!	!	!	!	!LO:LB:g=original	!	!	!	!	!	!LO:LB:g=original	!
=57	=57	=57	=57	=57	=57	=57	=57	=57	=57	=57	=57	=57	=57	=57	=57	=57	=57	=57
!	!	!	!	!	!	!	!	!LO:MO:mod=do-	!	!LO:MO:mod=do-	!	!LO:MO:mod=do-	!	!LO:MO:mod=do-	!	!	!	!
8B\L	6 5	.	(16d/LL	.	(16gg\LL	.	4B\	Do-	4G/	Do-	4f\	Do-	4dd\	Do-	2g/	.	2gg\	.
.	.	.	16g/)	.	16ff\J)	.	.	.	.	.	.	.	.	.	.	.	.	.
8B\	_ _	.	(16d/	.	(8.ff\J	.	.	.	.	.	.	.	.	.	.	.	.	.
.	.	.	16g/JJ)	.	.	.	.	.	.	.	.	.	.	.	.	.	.	.
8c\	3	.	(16e/LL	.	.	.	4c\	-mum	4G/	-mum	4e\	-mum	4cc\	-mum	.	.	.	.
.	.	.	16g/)	.	16ee\LL)	.	.	.	.	.	.	.	.	.	.	.	.	.
8c\J	_	.	(16e/	.	(16dd\	.	.	.	.	.	.	.	.	.	.	.	.	.
.	.	.	16g/JJ)	.	16cc\JJ)	.	.	.	.	.	.	.	.	.	.	.	.	.
!LO:LB:g=original	!	!	!	!	!LO:LB:g=original	!	!	!	!	!	!	!	!	!	!LO:LB:g=original	!	!	!
=58	=58	=58	=58	=58	=58	=58	=58	=58	=58	=58	=58	=58	=58	=58	=58	=58	=58	=58
8d\L	6 3	.	(16f/LL	.	(16cc\LL	.	4d\	Da-	4G/	Da-	4f\	Da-	4b\	Da-	2g/	.	2gg\	.
.	.	.	16g/)	.	16b\J)	.	.	.	.	.	.	.	.	.	.	.	.	.
8d\	_ _	.	(16f/	.	8b\J	.	.	.	.	.	.	.	.	.	.	.	.	.
.	.	.	16g/JJ)	.	.	.	.	.	.	.	.	.	.	.	.	.	.	.
8c\	x 3	.	(16e/LL	.	16b\LL	.	8c\	-vid	8G/	-vid	8e\	-vid	8cc\	-vid	.	.	.	.
.	.	.	16g/)	.	16cc\	.	.	.	.	.	.	.	.	.	.	.	.	.
8c\J	x _	.	(16e/	.	16dd\	.	8c\	Ro-	8G/	Ro-	8e\	Ro-	8cc\	Ro-	.	.	.	.
.	x	.	16g/JJ)	.	16ee\JJ	.	.	.	.	.	.	.	.	.	.	.	.	.
=59	=59	=59	=59	=59	=59	=59	=59	=59	=59	=59	=59	=59	=59	=59	=59	=59	=59	=59
8B\L	6 5	.	(16f#X/LL	.	(16ff#X\LL	.	4B\	-ga-	4G/	-ga-	4f\	-ga-	4dd\	-ga-	4g/	.	4gg\	.
.	.	.	16g/J)	.	16gg\J)	.	.	.	.	.	.	.	.	.	.	.	.	.
8B\	_ _	.	(8.g/J	.	(8.gg\J	.	.	.	.	.	.	.	.	.	.	.	.	.
8B\	.	.	.	.	.	.	4B\	-te	4G/	-te	4f\	-te	4dd\	-te	4dd\	.	4ff\	.
.	.	.	16fn/LL)	.	16ffn\LL)	.	.	.	.	.	.	.	.	.	.	.	.	.
8B\J	x	.	(16e/	.	(16ee\	.	.	.	.	.	.	.	.	.	.	.	.	.
.	.	.	16d/JJ)	.	16dd\JJ)	.	.	.	.	.	.	.	.	.	.	.	.	.
!	!	!	!	!	!	!	!	!	!LO:LB:g=original	!	!	!	!LO:LB:g=original	!	!	!	!	!
=60	=60	=60	=60	=60	=60	=60	=60	=60	=60	=60	=60	=60	=60	=60	=60	=60	=60	=60
8c\L	.	.	(16d/LL	.	(16dd\LL	.	8c\	que	8G/	que	8e\	que	8cc\	quae	4cc\	.	4ee\	.
.	.	.	16c/JJ)	.	16cc\JJ)	.	.	.	.	.	.	.	.	.	.	.	.	.
8c\	.	.	4c/	.	4cc\	.	8c\	ad	8G/	ad	8e\	ad	8cc\	ad	.	.	.	.
8E\	6	.	.	.	.	.	8E\	pa-	8G/	pa-	8e\	pa-	8cc\	pa-	4ee\	.	4gg\	.
8E\J	_	.	(16e/LL	.	(16ee\LL	.	8E\	-cem	8G/	-cem	8e\	-cem	8cc\	-cem	.	.	.	.
.	x	.	16g/JJ)	.	16gg\JJ)	.	.	.	.	.	.	.	.	.	.	.	.	.
!	!	!	!	!	!	!	!LO:LB:g=original	!	!	!	!	!	!	!	!	!	!	!
=61	=61	=61	=61	=61	=61	=61	=61	=61	=61	=61	=61	=61	=61	=61	=61	=61	=61	=61
8F\L	6	.	(16g/LL	.	(16gg\LL	.	4F\	sunt	4A\	ſunt	4f\	ſunt	4dd\	sunt	4dd\	.	4ff\	.
.	.	.	16f/)	.	16ff\)	.	.	.	.	.	.	.	.	.	.	.	.	.
8F\	.	.	(16e/	.	(16ee\	.	.	.	.	.	.	.	.	.	.	.	.	.
.	.	.	16d/JJ)	.	16dd\JJ)	.	.	.	.	.	.	.	.	.	.	.	.	.
8F#X\	5	.	(16f/LL	.	(16ff\LL	.	4F#X\	Je-	4A\	Je-	4e\	Je-	4cc\	Je-	4cc\	.	4ee\	.
.	.	.	16e/)	.	16ee\)	.	.	.	.	.	.	.	.	.	.	.	.	.
8F#\J	_	.	(16d/	.	(16dd\	.	.	.	.	.	.	.	.	.	.	.	.	.
.	x	.	16c/JJ)	.	16cc\JJ)	.	.	.	.	.	.	.	.	.	.	.	.	.
=62	=62	=62	=62	=62	=62	=62	=62	=62	=62	=62	=62	=62	=62	=62	=62	=62	=62	=62
!	!	!	!	!	!LO:SIC:s=(8.ccTL	!	!	!	!	!	!	!	!	!	!	!	!	!
8G\L	4	.	(8.c/L	.	8.ccT\L	.	8.G\	-ru-	8.G/	-ru-	8.e\	-ru-	8.cc\	-ru-	4cc\	.	4ee\	.
8G\	3	.	.	.	.	.	.	.	.	.	.	.	.	.	.	.	.	.
!	!	!	!	!	!LO:SIC:s=32ddLL	!	!	!	!	!	!	!	!	!	!	!	!	!
.	.	.	32d/LL	.	(32dd\LL	.	16G\	-sa-	16G/	-sa-	16e\	-sa-	16cc\	-sa-	.	.	.	.
.	.	.	32c/JJJ)	.	32cc\JJJ)	.	.	.	.	.	.	.	.	.	.	.	.	.
8G\	.	.	(16B/LL	.	(16b\LL	.	8G\	-lem	8G/	-lem	8d\	-lem	8b\	-lem	4g/	.	4dd\	.
.	.	.	16d/)	.	16dd\)	.	.	.	.	.	.	.	.	.	.	.	.	.
8B\J	6 5n	.	(16g/	.	(16gg\	.	8B\	et	8G/	et	8g\	et	8dd\	et	.	.	.	.
.	.	.	16f/JJ)	.	16ff\JJ)	.	.	.	.	.	.	.	.	.	.	.	.	.
=63	=63	=63	=63	=63	=63	=63	=63	=63	=63	=63	=63	=63	=63	=63	=63	=63	=63	=63
!	!	!	!	!	!LO:SIC:s=16ffLL(	!	!	!	!	!	!	!	!	!	!	!	!	!
8c\L	.	.	(16f/LL	.	16ff\LL	.	8c\	a-	8c\	a-	8g\	a-	8ee\	a-	4cc\	.	4ee\	.
!	!	!	!	!	!LO:SIC:s=16eeJ)	!	!	!	!	!	!	!	!	!	!	!	!	!
.	.	.	16e/J)	.	16ee\J	.	.	.	.	.	.	.	.	.	.	.	.	.
!	!	!	!	!	!LO:SIC:s=(8.ggJ	!	!	!	!	!	!	!	!	!	!	!	!	!
8c\	.	.	(8.g/J	.	8.gg\J	.	8c\	-bun-	8c\	-bun-	8g\	-bun-	8ee\	-bun-	.	.	.	.
8B\	6	.	.	.	.	.	8B\	-dan-	8d\	-dan-	8g\	-dan-	8dd\	-dan-	4g/	.	4dd\	.
!	!	!	!	!	!LO:SIC:s=16ffLL)	!	!	!	!	!	!	!	!	!	!	!	!	!
.	.	.	16f/LL)	.	16ff\LL	.	.	.	.	.	.	.	.	.	.	.	.	.
!	!	!	!	!	!LO:SIC:s=(16ee	!	!	!	!	!	!	!	!	!	!	!	!	!
8B\J	_	.	(16e/	.	16ee\	.	8B\	-ti-	8d\	-ti-	8g\	-ti-	8dd\	-ti-	.	.	.	.
!	!	!	!	!	!LO:SIC:s=16ddJJ)	!	!	!	!	!	!	!	!	!	!	!	!	!
.	x	.	16d/JJ)	.	16dd\JJ	.	.	.	.	.	.	.	.	.	.	.	.	.
!	!	!	!LO:PB:g=original	!	!	!	!	!	!	!	!LO:LB:g=original	!	!	!	!	!	!	!
=64	=64	=64	=64	=64	=64	=64	=64	=64	=64	=64	=64	=64	=64	=64	=64	=64	=64	=64
!	!	!	!	!	!LO:SIC:s=(16ddLL	!	!	!	!	!	!	!	!	!	!	!	!	!
8A\L	.	.	(16d/LL	.	16dd\LL	.	4A\	-a	4c\	-a	4e\	-a	4cc\	-a	4e/	.	4cc\	.
!	!	!	!	!	!LO:SIC:s=16ccJJ)	!	!	!	!	!	!	!	!	!	!	!	!	!
.	.	.	16c/JJ)	.	16cc\JJ	.	.	.	.	.	.	.	.	.	.	.	.	.
8A\	.	.	4c/	.	4cc\	.	.	.	.	.	.	.	.	.	.	.	.	.
8E\	6	.	.	.	.	.	8E\	di-	8G/	di-	8g\	di-	8cc\	di-	4cc\	.	4ee\	.
!	!	!	!	!	!LO:SIC:s=(16eeLL	!	!	!	!	!	!	!	!	!	!	!	!	!
8E\J	.	.	(16e/LL	.	16ee\LL	.	8E\	-li-	8G/	-li-	8g\	-li-	8cc\	-li-	.	.	.	.
!	!	!	!	!	!LO:SIC:s=16ggJJ)	!	!	!	!	!	!	!	!	!	!	!	!	!
.	.	.	16g/JJ)	.	16gg\JJ	.	.	.	.	.	.	.	.	.	.	.	.	.
=65	=65	=65	=65	=65	=65	=65	=65	=65	=65	=65	=65	=65	=65	=65	=65	=65	=65	=65
!LO:TX:t=P:problem=mixed beam	!	!	!	!	!	!	!	!	!	!	!	!	!	!	!	!	!	!
8F\L	6	.	8a\L	.	16gg\LL	.	4F\	-gen-	4A/	-gen-	4f\	-gen-	4dd\	-gen-	4dd\	.	4ff\	.
.	.	.	.	.	16ff\	.	.	.	.	.	.	.	.	.	.	.	.	.
8F\	_	.	8dd\	.	16aa\	.	.	.	.	.	.	.	.	.	.	.	.	.
.	.	.	.	.	16ff\JJ	.	.	.	.	.	.	.	.	.	.	.	.	.
8G\	4	.	8cc\	.	8ee\L	.	8G\	-ti-	8G/	-ti-	8e\	-ti-	8cc\	-ti-	8cc\L	.	8ee\L	.
8GG/J	3	.	8b\J	.	8dd\J	.	8G\	-bus-	8G/	-bus-	8d\	-bus-	8b\	-bus-	8g\J	.	8dd\J	.
!	!	!	!	!	!LO:LB:g=original	!	!	!	!	!	!	!	!	!	!	!	!	!
=66	=66	=66	=66	=66	=66	=66	=66	=66	=66	=66	=66	=66	=66	=66	=66	=66	=66	=66
!LO:MO:mod=!LO&colon;TX&colon;i&colon;t=Solo	!	!	!	!	!	!	!	!	!	!	!	!	!	!	!	!	!	!
!LO:TX:a:t=Solo	!	!	!	!	!	!	!	!	!	!	!	!	!	!	!	!	!	!
8C/	.	.	8cc\	.	16ee\LL	.	4C/	-te	4G/	-te	4e\	-te	4cc\	-te	4e/	.	4cc\	.
.	.	.	.	.	16dd\	.	.	.	.	.	.	.	.	.	.	.	.	.
8r	.	.	8r	.	16ee\	.	.	.	.	.	.	.	.	.	.	.	.	.
.	.	.	.	.	16ff\JJ	.	.	.	.	.	.	.	.	.	.	.	.	.
!	!	!	!LO:MO:mod=!LO&colon;TX&colon;i&colon;t=Solo	!	!	!	!	!	!	!	!	!	!	!	!	!	!	!
!	!	!	!LO:TX:a:rj:t=Solo	!	!	!	!	!	!	!	!	!	!	!	!	!	!	!
8c\L	.	.	8g/L	.	16gg\LL	.	4r	.	4r	.	4r	.	4r	.	4r	.	4r	.
.	.	.	.	.	16ee\	.	.	.	.	.	.	.	.	.	.	.	.	.
8B\J	6	.	8g/J	.	16ff\	.	.	.	.	.	.	.	.	.	.	.	.	.
.	.	.	.	.	16dd\JJ	.	.	.	.	.	.	.	.	.	.	.	.	.
!	!	!	!	!	!	!	!	!	!	!	!	!	!LO:LB:g=original	!	!	!	!	!
=67	=67	=67	=67	=67	=67	=67	=67	=67	=67	=67	=67	=67	=67	=67	=67	=67	=67	=67
!LO:TX:t=P:problem=mixed beam	!	!	!	!	!	!	!	!	!	!	!LO:TX:a:t=Bas solo:mod=	!	!LO:TX:a:t=Bas Solo Tenor:mod=	!	!	!	!	!
8A\L	.	.	8a/L	.	16ee\LL	.	2r	.	0r	.	0r	.	0r	.	8r	.	8r	.
.	.	.	.	.	16cc\	.	.	.	.	.	.	.	.	.	.	.	.	.
8F\	6	.	8a/	.	16ff\	.	.	.	.	.	.	.	.	.	8dd\L	.	8ff\L	.
.	.	.	.	.	16dd\JJ	.	.	.	.	.	.	.	.	.	.	.	.	.
8G\	4	.	8e/	.	8cc\L	.	.	.	.	.	.	.	.	.	8cc\	.	8ee\	.
8GG/J	3	.	8d'/J	.	8b\J	.	.	.	.	.	.	.	.	.	8g\J	.	8dd\J	.
=68	=68	=68	=68	=68	=68	=68	=68	=68	=68	=68	=68	=68	=68	=68	=68	=68	=68	=68
!	!	!	!	!	!	!	!LO:MO:mod=!LO&colon;TX&colon;i&colon;t=Solo	!	!	!	!	!	!	!	!	!	!	!
!	!	!	!	!	!LO:TX:t=P:problem=mixed beam	!	!LO:TX:a:t=Solo	!	!	!	!	!	!	!	!	!	!	!
8C\L	.	.	8e/L	.	8cc\L	.	4C/	Fi-	.	.	.	.	.	.	4e/	.	4cc\	.
!	!	!LO:MO:null:mod=!LO&colon;DY&colon;ed=brack	!	!LO:MO:null:mod=!LO&colon;DY&colon;ed=brack	!	!	!	!	!	!	!	!	!	!	!	!	!	!
!	!	!	!	!	!	!	!	!	!	!	!	!	!	!	!	!	!	!
!	!	!LO:MO:null:mod=p	!	!LO:MO:null:mod=p	!	!LO:DY:a	!	!	!	!	!	!	!	!	!	!	!	!
8C\|	.	.	8c/|	.	8c/	p	.	.	.	.	.	.	.	.	.	.	.	.
8E\|	.	.	8e/|	.	8e/	.	8E\	.	.	.	.	.	.	.	4r	.	4r	.
8G\J|	.	.	8g/J|	.	8g/J	.	8G\	-at	.	.	.	.	.	.	.	.	.	.
!LO:LB:g=original	!	!	!	!	!	!	!	!	!	!	!	!	!	!	!	!	!	!
=69	=69	=69	=69	=69	=69	=69	=69	=69	=69	=69	=69	=69	=69	=69	=69	=69	=69	=69
!LO:TX:t=P:problem=mixed beam	!	!	!LO:TX:t=P:problem=mixed beam	!	!LO:TX:t=P:problem=mixed beam	!	!	!	!	!	!	!	!	!	!	!	!	!
!	!	!	!LO:SIC:s=8ccL|	!	!LO:SIC:s=8ccL|	!	!	!	!	!	!	!	!	!	!	!	!	!
8c\L|	.	.	8cc\L	.	8cc\L	.	4c\	pax	.	.	.	.	.	.	0r	.	0r	.
!	!	!	!LO:SIC:s=(32cLL	!	!LO:SIC:s=(32cLL	!	!	!	!	!	!	!	!	!	!	!	!	!
(32C/LL	.	.	32c/LL	.	32c/LL	.	.	.	.	.	.	.	.	.	.	.	.	.
!	!	!	!LO:SIC:s=32d	!	!LO:SIC:s=32d	!	!	!	!	!	!	!	!	!	!	!	!	!
32D/	.	.	(32d/	.	(32d/	.	.	.	.	.	.	.	.	.	.	.	.	.
32E/	.	.	32e/	.	32e/	.	.	.	.	.	.	.	.	.	.	.	.	.
32D/JJJ)	.	.	32d/JJJ)	.	32d/JJJ)	.	.	.	.	.	.	.	.	.	.	.	.	.
8C/L|	.	.	8c/L|	.	8c/L|	.	8r	.	.	.	.	.	.	.	.	.	.	.
!	!	!	!	!	!	!	!LO:LB:g=original	!	!	!	!	!	!	!	!	!	!	!
8E/J|	.	.	8e/J|	.	8e/J|	.	8E\	in	.	.	.	.	.	.	.	.	.	.
=70	=70	=70	=70	=70	=70	=70	=70	=70	=70	=70	=70	=70	=70	=70	=70	=70	=70	=70
!	!	!	!	!	!	!	!	!LO:MO:mod=vir-	!	!	!	!	!	!	!	!	!	!
8F\L|	.	.	8f/L|	.	8f/L|	.	8F\L	Vir-	.	.	.	.	.	.	.	.	.	.
8E\|	.	.	8e/|	.	8e/|	.	8E\J	.	.	.	.	.	.	.	.	.	.	.
8D\|	.	.	8d/|	.	8d/|	.	8D\	-tu-	.	.	.	.	.	.	.	.	.	.
8G\J|	.	.	8g/J|	.	8g/J|	.	8G\	-te	.	.	.	.	.	.	.	.	.	.
=71	=71	=71	=71	=71	=71	=71	=71	=71	=71	=71	=71	=71	=71	=71	=71	=71	=71	=71
8.E\L|	.	.	(8.e/L	.	(8.e/L	.	8.E\L	tu-	0r	.	0r	.	0r	.	.	.	.	.
16D\Jk|	.	.	16d/Jk)	.	16d/Jk)	.	16D\Jk	.	.	.	.	.	.	.	.	.	.	.
8C\L	.	.	8c/L|	.	8c/L|	.	8C/	-a	.	.	.	.	.	.	.	.	.	.
16E\L	.	.	(16e/L	.	(16e/L	.	8r	.	.	.	.	.	.	.	.	.	.	.
16G\JJ	.	.	16g/JJ)	.	16g/JJ)	.	.	.	.	.	.	.	.	.	.	.	.	.
=72	=72	=72	=72	=72	=72	=72	=72	=72	=72	=72	=72	=72	=72	=72	=72	=72	=72	=72
!LO:TX:t=P:problem=mixed beam	!	!	!LO:TX:t=P:problem=mixed beam	!	!LO:TX:t=P:problem=mixed beam	!	!	!	!	!	!	!	!	!	!	!	!	!
8c\L	.	.	8cc\L	.	8cc\L	.	8r	.	.	.	.	.	.	.	.	.	.	.
8C/J	.	.	8c/J	.	8c/J	.	8G\	et	.	.	.	.	.	.	.	.	.	.
4r	.	.	4r	.	4r	.	8A\	a-	.	.	.	.	.	.	.	.	.	.
.	.	.	.	.	.	.	8B\	-bun-	.	.	.	.	.	.	.	.	.	.
=73	=73	=73	=73	=73	=73	=73	=73	=73	=73	=73	=73	=73	=73	=73	=73	=73	=73	=73
8r	.	.	8r	.	8r	.	[4c\	-dan-	.	.	.	.	.	.	0r	.	0r	.
8C\L	3	.	8G/L	.	8e/L	.	.	.	.	.	.	.	.	.	.	.	.	.
8D\	7- 3	.	8G/	.	8f/	.	16c\LL]	.	.	.	.	.	.	.	.	.	.	.
.	.	.	.	.	.	.	16B\JJ	.	.	.	.	.	.	.	.	.	.	.
8E\J	5- 3	.	8c/J	.	8g/J	.	16A\LL	-ti-	.	.	.	.	.	.	.	.	.	.
.	.	.	.	.	.	.	16B-X\JJ	.	.	.	.	.	.	.	.	.	.	.
!	!	!	!LO:LB:g=original	!	!	!	!	!	!	!	!	!	!	!	!	!	!	!
=74	=74	=74	=74	=74	=74	=74	=74	=74	=74	=74	=74	=74	=74	=74	=74	=74	=74	=74
4F\	x 3	.	4c/	.	4a/	.	8A\	-a	.	.	.	.	.	.	.	.	.	.
.	.	.	.	.	.	.	8A\	et	.	.	.	.	.	.	.	.	.	.
4r	.	.	4r	.	4r	.	8Bn\	a-	.	.	.	.	.	.	.	.	.	.
.	.	.	.	.	.	.	8c#X\	-bun-	.	.	.	.	.	.	.	.	.	.
=75	=75	=75	=75	=75	=75	=75	=75	=75	=75	=75	=75	=75	=75	=75	=75	=75	=75	=75
8r	.	.	8r	.	8r	.	4d\	-dan-	0r	.	0r	.	0r	.	.	.	.	.
8D\L	#	.	8A/L	.	8f#X/L	.	.	.	.	.	.	.	.	.	.	.	.	.
8E\	7 3	.	8A/	.	8g/	.	16d\LL	.	.	.	.	.	.	.	.	.	.	.
.	6\	.	.	.	.	.	16c\JJ	.	.	.	.	.	.	.	.	.	.	.
8F#X\J	5n 3	.	8d/J	.	8a/J	.	16B\LL	-ti-	.	.	.	.	.	.	.	.	.	.
!	!	!	!	!	!	!	!LO:MO:mod=16cJJ	!	!	!	!	!	!	!	!	!	!	!
.	.	.	.	.	.	.	16cn\JJ	.	.	.	.	.	.	.	.	.	.	.
!	!	!	!	!	!LO:LB:g=original	!	!	!	!	!	!	!	!	!	!	!	!	!
=76	=76	=76	=76	=76	=76	=76	=76	=76	=76	=76	=76	=76	=76	=76	=76	=76	=76	=76
4G\	3	.	4d/	.	4b\	.	8B\	-a	.	.	.	.	.	.	.	.	.	.
.	.	.	.	.	.	.	8B\	et	.	.	.	.	.	.	.	.	.	.
!	!	!	!	!	!	!	!LO:LB:g=original	!	!	!	!	!	!	!	!	!	!	!
4r	.	.	4r	.	4r	.	8c\	a-	.	.	.	.	.	.	.	.	.	.
!	!	!	!	!	!	!	!LO:SIC:v:s=8d	!	!	!	!	!	!	!	!	!	!	!
.	.	.	.	.	.	.	8d#X\	-bun-	.	.	.	.	.	.	.	.	.	.
=77	=77	=77	=77	=77	=77	=77	=77	=77	=77	=77	=77	=77	=77	=77	=77	=77	=77	=77
8r	.	.	8r	.	8r	.	4e\	-dan-	.	.	.	.	.	.	0r	.	0r	.
8E\L	#	.	8B/L	.	8g#X/L	.	.	.	.	.	.	.	.	.	.	.	.	.
8F\	7 3	.	8B/	.	8a/	.	16e\LL	.	.	.	.	.	.	.	.	.	.	.
.	6\	.	.	.	.	.	16d\JJ	.	.	.	.	.	.	.	.	.	.	.
8G#X\J	5n 3	.	8e/J	.	8b/J	.	16c\LL	-ti-	.	.	.	.	.	.	.	.	.	.
!	!	!	!	!	!	!	!LO:MO:mod=16dJJ	!	!	!	!	!	!	!	!	!	!	!
.	.	.	.	.	.	.	16dn\JJ	.	.	.	.	.	.	.	.	.	.	.
=78	=78	=78	=78	=78	=78	=78	=78	=78	=78	=78	=78	=78	=78	=78	=78	=78	=78	=78
*	*	*	*tremolo	*	*	*	*	*	*	*	*	*	*	*	*	*	*	*
!LO:TX:t=P:problem=mixed beam	!	!	!	!	!	!	!	!	!	!	!	!	!	!	!	!	!	!
8A\L	3	.	8e/L	.	8cc\L	.	4c\	-a	.	.	.	.	.	.	.	.	.	.
8A\	.	.	8e/	.	16ee\L	.	.	.	.	.	.	.	.	.	.	.	.	.
.	.	.	.	.	16dd\JJ	.	.	.	.	.	.	.	.	.	.	.	.	.
8C/	6	.	8e/	.	8cc\L	.	8A\	in	.	.	.	.	.	.	.	.	.	.
8C/J	.	.	8e/J	.	8cc\J	.	8A\	tur-	.	.	.	.	.	.	.	.	.	.
*	*	*	*Xtremolo	*	*	*	*	*	*	*	*	*	*	*	*	*	*	*
=79	=79	=79	=79	=79	=79	=79	=79	=79	=79	=79	=79	=79	=79	=79	=79	=79	=79	=79
8D\L	6	.	8f/L	.	8b\L	.	8B\	-ri-	1r	.	0r	.	0r	.	.	.	.	.
8D\	.	.	8f/	.	16b\L	.	8B\	-bus	.	.	.	.	.	.	.	.	.	.
.	.	.	.	.	16dd\JJ	.	.	.	.	.	.	.	.	.	.	.	.	.
8E\	#	.	8g#X/	.	16cc\LL	.	8.G#X\L	tu-	.	.	.	.	.	.	.	.	.	.
.	.	.	.	.	16b\	.	.	.	.	.	.	.	.	.	.	.	.	.
8E\J	.	.	8g#/J	.	16a\	.	.	.	.	.	.	.	.	.	.	.	.	.
.	.	.	.	.	16b\JJ	.	32F\LL	.	.	.	.	.	.	.	.	.	.	.
.	.	.	.	.	.	.	32G#\JJJ	.	.	.	.	.	.	.	.	.	.	.
!LO:LB:g=original	!	!	!	!	!	!	!	!	!	!	!	!	!	!	!	!	!	!
=80	=80	=80	=80	=80	=80	=80	=80	=80	=80	=80	=80	=80	=80	=80	=80	=80	=80	=80
8AA/L	.	.	8a/L	.	8cc\L	.	4A\	-is	.	.	.	.	.	.	.	.	.	.
8AA/	.	.	8a/	.	16ee\L	.	.	.	.	.	.	.	.	.	.	.	.	.
.	.	.	.	.	16dd\JJ	.	.	.	.	.	.	.	.	.	.	.	.	.
8C/	6	.	8e/	.	8cc\L	.	8C/	in	.	.	.	.	.	.	.	.	.	.
8C/J	.	.	8e/J	.	8cc\J	.	8C/	tur-	.	.	.	.	.	.	.	.	.	.
=81	=81	=81	=81	=81	=81	=81	=81	=81	=81	=81	=81	=81	=81	=81	=81	=81	=81	=81
8D\L	6	.	8f/L	.	8b\L	.	8D\	-ri-	2r	.	.	.	.	.	0r	.	0r	.
8D\	.	.	8f/	.	16b\L	.	8D\	-bus	.	.	.	.	.	.	.	.	.	.
.	.	.	.	.	16dd\JJ	.	.	.	.	.	.	.	.	.	.	.	.	.
8E\	#	.	8g#X/	.	16cc\LL	.	4E\	tu-	.	.	.	.	.	.	.	.	.	.
.	.	.	.	.	16b\	.	.	.	.	.	.	.	.	.	.	.	.	.
8E\J	.	.	8g#/J	.	16a\	.	.	.	.	.	.	.	.	.	.	.	.	.
.	.	.	.	.	16b\JJ	.	.	.	.	.	.	.	.	.	.	.	.	.
!	!	!	!	!	!	!	!	!	!LO:LB:g=original	!	!	!	!	!	!	!	!	!
=82	=82	=82	=82	=82	=82	=82	=82	=82	=82	=82	=82	=82	=82	=82	=82	=82	=82	=82
!LO:TX:t=P:problem=mixed beam	!	!	!	!	!	!	!	!	!LO:TX:a:t=Solo:mod=	!	!	!	!	!	!	!	!	!
8AA/L	.	.	8a/L	.	8cc\L	.	4AA/	-is	4r	.	.	.	.	.	.	.	.	.
8A\	.	.	16a/L	.	16cc\L	.	.	.	.	.	.	.	.	.	.	.	.	.
.	.	.	16cc/JJ	.	16ee\JJ	.	.	.	.	.	.	.	.	.	.	.	.	.
!	!	!	!	!	!	!	!	!	!LO:MO:null:mod=!LO&colon;TX&colon;i&colon;t=Solo	!	!	!	!	!	!	!	!	!
!	!	!	!	!	!	!	!	!	!	!	!	!	!	!	!	!	!	!
8AA/J	.	.	8a/	.	8cc\	.	4r	.	8A\	pro-	.	.	.	.	.	.	.	.
8r	.	.	8r	.	8r	.	.	.	8c\	-pter	.	.	.	.	.	.	.	.
=83	=83	=83	=83	=83	=83	=83	=83	=83	=83	=83	=83	=83	=83	=83	=83	=83	=83	=83
!	!	!	!	!	!	!	!LO:TX:a:t=Tenor Solo:mod=	!	!	!	!	!	!	!	!	!	!	!
8r	.	.	8r	.	8r	.	0r	.	4e\	frat-	0r	.	0r	.	.	.	.	.
!LO:TX:t=P:problem=mixed beam	!	!	!	!	!	!	!	!	!	!	!	!	!	!	!	!	!	!
8A\L	.	.	8a/L	.	8cc\L	.	.	.	.	.	.	.	.	.	.	.	.	.
8AA/	.	.	8a/	.	8cc\	.	.	.	16d\LL	.	.	.	.	.	.	.	.	.
.	.	.	.	.	.	.	.	.	16c\JJ	.	.	.	.	.	.	.	.	.
8A\J	.	.	8a/J	.	8cc\J	.	.	.	16B\LL	-res	.	.	.	.	.	.	.	.
.	.	.	.	.	.	.	.	.	16A\JJ	.	.	.	.	.	.	.	.	.
=84	=84	=84	=84	=84	=84	=84	=84	=84	=84	=84	=84	=84	=84	=84	=84	=84	=84	=84
!LO:TX:t=P:problem=mixed beam	!	!	!	!	!	!	!	!	!	!	!	!	!	!	!	!	!	!
8E\L	#	.	8g#X/L	.	8b\L	.	.	.	16A/LL	me-	.	.	.	.	.	.	.	.
.	.	.	.	.	.	.	.	.	16G#X/JJ	.	.	.	.	.	.	.	.	.
8EE/	_	.	16g#/L	.	16b\L	.	.	.	8G#/	-os	.	.	.	.	.	.	.	.
.	.	.	16a/JJ	.	16dd\JJ	.	.	.	.	.	.	.	.	.	.	.	.	.
8E\J	x	.	8g#/	.	8b\	.	.	.	16E/LL	et	.	.	.	.	.	.	.	.
.	.	.	.	.	.	.	.	.	16G#/JJ	.	.	.	.	.	.	.	.	.
8r	.	.	8r	.	8r	.	.	.	16G#/LL	pro-	.	.	.	.	.	.	.	.
.	.	.	.	.	.	.	.	.	16B/JJ	.	.	.	.	.	.	.	.	.
!	!	!	!LO:LB:g=original	!	!LO:LB:g=original	!	!	!	!	!	!	!	!	!	!	!	!	!
=85	=85	=85	=85	=85	=85	=85	=85	=85	=85	=85	=85	=85	=85	=85	=85	=85	=85	=85
8r	.	.	8r	.	8r	.	.	.	4d\	-xi-	.	.	.	.	0r	.	0r	.
8E\L	#	.	8g#X/L	.	8b\L	.	.	.	.	.	.	.	.	.	.	.	.	.
8G#X\	_	.	8e/	.	8b\	.	.	.	16e\LL	-i-	.	.	.	.	.	.	.	.
.	.	.	.	.	.	.	.	.	16d\JJ	.	.	.	.	.	.	.	.	.
8E\J	x	.	8g#/J	.	8b\J	.	.	.	16c\LL	-mos	.	.	.	.	.	.	.	.
.	.	.	.	.	.	.	.	.	16B\JJ	.	.	.	.	.	.	.	.	.
=86	=86	=86	=86	=86	=86	=86	=86	=86	=86	=86	=86	=86	=86	=86	=86	=86	=86	=86
!LO:TX:t=P:problem=mixed beam	!	!	!	!	!	!	!	!	!	!	!	!	!	!	!	!	!	!
8A\L	.	.	8a/L	.	8cc\L	.	.	.	16B\LL	me-	.	.	.	.	.	.	.	.
.	.	.	.	.	.	.	.	.	16A\JJ	.	.	.	.	.	.	.	.	.
8AA/J	.	.	16a/L	.	16cc\L	.	.	.	8A\	-os	.	.	.	.	.	.	.	.
.	.	.	16g#X/JJ	.	16b\JJ	.	.	.	.	.	.	.	.	.	.	.	.	.
8r	.	.	8a/L	.	8cc\L	.	.	.	8r	.	.	.	.	.	.	.	.	.
8C/	6	.	8a/J	.	8ee\J	.	.	.	8e\	pro-	.	.	.	.	.	.	.	.
=87	=87	=87	=87	=87	=87	=87	=87	=87	=87	=87	=87	=87	=87	=87	=87	=87	=87	=87
!LO:TX:t=P:problem=mixed beam	!	!	!	!	!	!	!	!	!	!	!	!	!	!	!	!	!	!
8D\L	6	.	8f/L	.	8dd\L	.	0r	.	8d\	-xi-	0r	.	0r	.	.	.	.	.
8D\	.	.	8f/	.	16dd\L	.	.	.	16f\LL	-mos	.	.	.	.	.	.	.	.
.	.	.	.	.	16b\JJ	.	.	.	16d\JJ	.	.	.	.	.	.	.	.	.
8E\	4	.	8e/	.	8a/L	.	.	.	8c\L	me-	.	.	.	.	.	.	.	.
8EE/J	#	.	8e/J	.	8g#X/J	.	.	.	8B\J	.	.	.	.	.	.	.	.	.
=88	=88	=88	=88	=88	=88	=88	=88	=88	=88	=88	=88	=88	=88	=88	=88	=88	=88	=88
!LO:TX:t=P:problem=mixed beam	!	!	!	!	!	!	!	!	!	!	!	!	!	!	!	!	!	!
8AA/L	.	.	8e/L	.	8a\L	.	.	.	4A\	-os	.	.	.	.	.	.	.	.
8A\	.	.	8e/	.	16cc\L	.	.	.	.	.	.	.	.	.	.	.	.	.
.	.	.	.	.	16dd\JJ	.	.	.	.	.	.	.	.	.	.	.	.	.
8AA/J	.	.	8e/J	.	8cc\	.	.	.	8r	.	.	.	.	.	.	.	.	.
8r	.	.	8r	.	8r	.	.	.	8e\	lo-	.	.	.	.	.	.	.	.
!	!	!	!	!	!	!	!	!	!LO:LB:g=original	!	!	!	!	!	!	!	!	!
=89	=89	=89	=89	=89	=89	=89	=89	=89	=89	=89	=89	=89	=89	=89	=89	=89	=89	=89
!	!	!	!	!	!	!	!	!	!LO:SIC:v:s=4.c#	!	!	!	!	!	!	!	!	!
8r	.	.	8r	.	8r	.	.	.	4.c\	-que-	.	.	.	.	0r	.	0r	.
!LO:TX:t=P:problem=mixed beam	!	!	!	!	!	!	!	!	!	!	!	!	!	!	!	!	!	!
8AA/L	#	.	8e/L	.	8cc#X\L	.	.	.	.	.	.	.	.	.	.	.	.	.
8A\	.	.	8a/	.	8ee\	.	.	.	.	.	.	.	.	.	.	.	.	.
8Gn\J	.	.	8a/J	.	8ee\J	.	.	.	16B\LL	-bar	.	.	.	.	.	.	.	.
!	!	!	!	!	!	!	!	!	!LO:SIC:v:s=16c#JJ	!	!	!	!	!	!	!	!	!
.	.	.	.	.	.	.	.	.	16c\JJ	.	.	.	.	.	.	.	.	.
=90	=90	=90	=90	=90	=90	=90	=90	=90	=90	=90	=90	=90	=90	=90	=90	=90	=90	=90
!	!	!	!	!	!	!	!	!	!LO:SIC:v:s=16c#LL	!	!	!	!	!	!	!	!	!
8r	.	.	8r	.	8r	.	.	.	16c\LL	pa-	.	.	.	.	.	.	.	.
.	.	.	.	.	.	.	.	.	16d\JJ	.	.	.	.	.	.	.	.	.
8F#X\L	6	.	8a/L	.	8dd\L	.	.	.	8d\	-cem	.	.	.	.	.	.	.	.
8F#\	_	.	8a/	.	8dd\	.	.	.	8r	.	.	.	.	.	.	.	.	.
8F#\J	x	.	8a/J	.	8dd\J	.	.	.	8d\	lo-	.	.	.	.	.	.	.	.
=91	=91	=91	=91	=91	=91	=91	=91	=91	=91	=91	=91	=91	=91	=91	=91	=91	=91	=91
8r	.	.	8r	.	8r	.	0r	.	4.B\	-que-	0r	.	0r	.	.	.	.	.
8G\L	3	.	8d/L	.	8b\L	.	.	.	.	.	.	.	.	.	.	.	.	.
8G\	_	.	8g/	.	8dd\	.	.	.	.	.	.	.	.	.	.	.	.	.
8Fn\J	.	.	8g/J	.	8dd\J	.	.	.	16A\LL	-bar	.	.	.	.	.	.	.	.
.	x	.	.	.	.	.	.	.	16B\JJ	.	.	.	.	.	.	.	.	.
!LO:LB:g=original	!	!	!	!	!	!	!	!	!	!	!	!	!	!	!	!	!	!
=92	=92	=92	=92	=92	=92	=92	=92	=92	=92	=92	=92	=92	=92	=92	=92	=92	=92	=92
8r	.	.	8r	.	8r	.	.	.	16B\LL	pa-	.	.	.	.	.	.	.	.
.	.	.	.	.	.	.	.	.	16c\JJ	.	.	.	.	.	.	.	.	.
8E\L	6	.	8g/L	.	8cc\L	.	.	.	8c\	-cem	.	.	.	.	.	.	.	.
8E\	_	.	8g/	.	8cc\	.	.	.	8r	.	.	.	.	.	.	.	.	.
*	*	*	*	*	*	*	*	*	*	*ij	*	*	*	*	*	*	*	*
8E\J	x	.	8g/J	.	8cc\J	.	.	.	8c\	lo-	.	.	.	.	.	.	.	.
=93	=93	=93	=93	=93	=93	=93	=93	=93	=93	=93	=93	=93	=93	=93	=93	=93	=93	=93
8F\L	6	.	8a/L	.	8dd\L	.	.	.	4.d\	-que-	.	.	.	.	0r	.	0r	.
8F\	.	.	8a/	.	8dd\	.	.	.	.	.	.	.	.	.	.	.	.	.
8G\	3	.	8b/	.	8dd\	.	.	.	.	.	.	.	.	.	.	.	.	.
8G\J	_	.	8b/J	.	8dd\J	.	.	.	8B\	-bar	.	.	.	.	.	.	.	.
=94	=94	=94	=94	=94	=94	=94	=94	=94	=94	=94	=94	=94	=94	=94	=94	=94	=94	=94
8A\L	x	.	8cc/L	.	8ee\L	.	.	.	4.c\	pa-	.	.	.	.	.	.	.	.
8A\	.	.	8cc/	.	8ee\	.	.	.	.	.	.	.	.	.	.	.	.	.
8E\	6	.	8g/	.	8cc\	.	.	.	.	.	.	.	.	.	.	.	.	.
8E\J	.	.	8g/J	.	8cc\J	.	.	.	8G/	-cem	.	.	.	.	.	.	.	.
*	*	*	*	*	*	*	*	*	*	*Xij	*	*	*	*	*	*	*	*
!	!	!	!LO:LB:g=original	!	!LO:LB:g=original	!	!	!	!	!	!	!	!	!	!	!	!	!
=95	=95	=95	=95	=95	=95	=95	=95	=95	=95	=95	=95	=95	=95	=95	=95	=95	=95	=95
!LO:TX:t=P:problem=mixed beam	!	!	!	!	!	!	!	!	!	!	!	!	!	!	!	!	!	!
8F\L	6	.	8a/L	.	8dd\L	.	0r	.	16A\LL	pa-	0r	.	0r	.	.	.	.	.
.	.	.	.	.	.	.	.	.	16d\JJ	.	.	.	.	.	.	.	.	.
8F\	.	.	8f/	.	16ff\L	.	.	.	16f\LL	-cem	.	.	.	.	.	.	.	.
.	.	.	.	.	16dd\JJ	.	.	.	16d\JJ	.	.	.	.	.	.	.	.	.
8G\	4	.	8e/	.	8cc\L	.	.	.	8c\L	de	.	.	.	.	.	.	.	.
8GG/J	3	.	8d/J	.	8b\J	.	.	.	8B\J	.	.	.	.	.	.	.	.	.
=96	=96	=96	=96	=96	=96	=96	=96	=96	=96	=96	=96	=96	=96	=96	=96	=96	=96	=96
!LO:MO:null:mod=!LO&colon;TX&colon;i&colon;t=Solo	!	!	!LO:MO:mod=!LO&colon;TX&colon;i&colon;t=Solo	!	!LO:MO:mod=!LO&colon;TX&colon;i&colon;t=Solo	!	!	!	!	!	!	!	!	!	!	!	!	!
!	!	!	!LO:TX:a:t=Solo	!	!LO:TX:a:t=Solo	!	!	!	!	!	!	!	!	!	!	!	!	!
4C/	.	.	8e/L	.	8cc\L	.	.	.	4c\	te	.	.	.	.	.	.	.	.
.	.	.	16c/L	.	16cc\L	.	.	.	.	.	.	.	.	.	.	.	.	.
.	.	.	16d/JJ	.	16dd\JJ	.	.	.	.	.	.	.	.	.	.	.	.	.
8r	.	.	(16e/LL	.	16ee\LL	.	.	.	4r	.	.	.	.	.	.	.	.	.
.	.	.	16f/)	.	16ff\	.	.	.	.	.	.	.	.	.	.	.	.	.
8C/	.	.	(16g/	.	16gg\	.	.	.	.	.	.	.	.	.	.	.	.	.
.	.	.	16e/JJ)	.	16ee\JJ	.	.	.	.	.	.	.	.	.	.	.	.	.
=97	=97	=97	=97	=97	=97	=97	=97	=97	=97	=97	=97	=97	=97	=97	=97	=97	=97	=97
4F\	6	.	(16e/LL	.	(16ee\LL	.	.	.	1r	.	.	.	.	.	1r	.	1r	.
.	.	.	16d/J)	.	16dd\J)	.	.	.	.	.	.	.	.	.	.	.	.	.
.	.	.	(8.d/J	.	(8.dd\J	.	.	.	.	.	.	.	.	.	.	.	.	.
4G\	.	.	.	.	.	.	.	.	.	.	.	.	.	.	.	.	.	.
.	.	.	16B/LL)	.	16b\LL)	.	.	.	.	.	.	.	.	.	.	.	.	.
.	.	.	(16c/	.	(16cc\	.	.	.	.	.	.	.	.	.	.	.	.	.
.	.	.	16d/JJ)	.	16dd\JJ)	.	.	.	.	.	.	.	.	.	.	.	.	.
=98	=98	=98	=98	=98	=98	=98	=98	=98	=98	=98	=98	=98	=98	=98	=98	=98	=98	=98
4A\	.	.	(16d/LL	.	16dd\LL	.	.	.	.	.	.	.	.	.	.	.	.	.
.	.	.	16c/J)	.	16cc\J	.	.	.	.	.	.	.	.	.	.	.	.	.
.	.	.	(8.c/J	.	8.cc\J	.	.	.	.	.	.	.	.	.	.	.	.	.
4E\	6	.	.	.	.	.	.	.	.	.	.	.	.	.	.	.	.	.
.	.	.	16B/LL)	.	16b/LL	.	.	.	.	.	.	.	.	.	.	.	.	.
.	.	.	(16A/	.	16a/	.	.	.	.	.	.	.	.	.	.	.	.	.
.	.	.	16G/JJ)	.	16g/JJ	.	.	.	.	.	.	.	.	.	.	.	.	.
=99	=99	=99	=99	=99	=99	=99	=99	=99	=99	=99	=99	=99	=99	=99	=99	=99	=99	=99
4F\	6	.	8A/L	.	16a\LL	.	2r	.	2r	.	2r	.	2r	.	8r	.	8r	.
.	.	.	.	.	16dd\	.	.	.	.	.	.	.	.	.	.	.	.	.
.	.	.	16a/L	.	16ff\	.	.	.	.	.	.	.	.	.	8dd\L	.	8ff\L	.
.	.	.	16f/JJ	.	16dd\JJ	.	.	.	.	.	.	.	.	.	.	.	.	.
!LO:TX:t=P:problem=mixed beam	!	!	!	!	!	!	!	!	!	!	!	!	!	!	!	!	!	!
8G\L	4	.	8e/L	.	8cc\L	.	.	.	.	.	.	.	.	.	8cc\	.	8ee\	.
8GG/J	3	.	8d/J	.	8b\J	.	.	.	.	.	.	.	.	.	8g\J	.	8dd\J	.
!	!	!	!	!	!	!	!	!	!LO:LB:g=original	!	!	!	!	!	!	!	!	!
=100	=100	=100	=100	=100	=100	=100	=100	=100	=100	=100	=100	=100	=100	=100	=100	=100	=100	=100
!	!	!LO:MO:null:mod=!LO&colon;DY&colon;ed=brack	!	!	!	!	!	!	!	!	!	!	!	!	!	!	!	!
!LO:MO:mod=!LO&colon;TX&colon;i&colon;t=Tutti	!	!	!	!	!	!	!	!	!	!	!	!	!	!	!	!	!	!
!LO:TX:a:t=tutti	!	!LO:MO:null:mod=f	!	!LO:DY:a	!	!LO:DY:a	!	!	!	!LO:MO:mod=Pro-	!	!LO:MO:mod=Pro-	!	!LO:MO:mod=Pro-	!	!	!	!
4C/	.	.	(8.c/L	f	(8.cc\L	f	4C/	Pro-	4G/	pro-	4e\	pro-	4cc\	pro-	2cc\	.	2ee\	.
.	.	.	16e/Jk)	.	16ee\K)	.	.	.	.	.	.	.	.	.	.	.	.	.
4E\	6	.	8g/L|	.	8gg\|	.	4E\	-pter	4G/	-pter	4e\	-pter	4cc\	-pter	.	.	.	.
.	.	.	8g/J|	.	8gg\J|	.	.	.	.	.	.	.	.	.	.	.	.	.
!	!	!	!	!	!	!	!LO:LB:g=original	!	!	!	!	!	!	!	!	!	!LO:LB:g=original	!
=101	=101	=101	=101	=101	=101	=101	=101	=101	=101	=101	=101	=101	=101	=101	=101	=101	=101	=101
!	!	!	!	!	!	!	!	!LO:MO:mod=do-	!	!LO:MO:mod=do-	!	!LO:MO:mod=do-	!	!LO:MO:mod=do-	!	!	!	!
4F\	6\	.	(8.f/L	.	(8.ff\L	.	4F\	Do-	4A/	Do-	4f\	Do-	4dd\	Do-	4dd\	.	4ff\	.
!	!	!	!LO:SIC:s=16dJk)	!	!	!	!	!	!	!	!	!	!	!	!	!	!	!
.	.	.	(16d/Jk)	.	16dd\Jk)	.	.	.	.	.	.	.	.	.	.	.	.	.
!	!	!	!	!	!LO:SIC:s=16qqcc	!	!	!	!	!	!	!	!	!	!	!	!	!
.	.	.	.	.	16qqcc/|	.	.	.	.	.	.	.	.	.	.	.	.	.
!	!	!	!	!	!	!	!	!	!	!LO:MO:mod=-mum	!	!	!	!LO:MO:mod=-mum	!	!	!	!
4G\	3	.	8B/L)	.	8b\L	.	4G\	-mum	4G/	-mu(m)	4d\	-mum	4b\	-mu(m)	4g/	.	4dd\	.
.	.	.	(16A/L	.	(16a\L	.	.	.	.	.	.	.	.	.	.	.	.	.
.	.	.	16B/JJ)	.	16b\JJ)	.	.	.	.	.	.	.	.	.	.	.	.	.
!	!	!	!	!	!	!	!	!	!	!	!	!	!	!	!LO:LB:g=original	!	!	!
=102	=102	=102	=102	=102	=102	=102	=102	=102	=102	=102	=102	=102	=102	=102	=102	=102	=102	=102
4c\	.	.	(8.c/L	.	(8.cc\L	.	4c\	Do-	4G/	Do-	4e\	Do-	4cc\	Do-	2cc\	.	2ee\	.
.	.	.	16e/Jk)	.	16ee\K)	.	.	.	.	.	.	.	.	.	.	.	.	.
4E\	6	.	8g/L|	.	8gg\|	.	8E\	-mi-	8G/	-mi-	8e\	-mi-	8cc\	-mi-	.	.	.	.
.	.	.	8g/J|	.	8gg\J|	.	8E\	-ni	8G/	-ni	8e\	-ni	8cc\	-ni	.	.	.	.
=103	=103	=103	=103	=103	=103	=103	=103	=103	=103	=103	=103	=103	=103	=103	=103	=103	=103	=103
4F\	6	.	(8.f/L	.	(8.ff\L	.	4F\	De-	4A/	De-	4f\	De-	4dd\	De-	4dd\	.	4ff\	.
.	.	.	16d/Jk)	.	16dd\Jk)	.	.	.	.	.	.	.	.	.	.	.	.	.
!	!	!	!LO:LB:g=original	!	!LO:LB:g=original	!	!	!	!	!	!	!	!	!	!	!	!	!
!	!	!	!LO:SIC:s=16qqc	!	!	!	!	!	!	!	!	!	!	!	!	!	!	!
.	.	.	16qqc/|	.	16qqcc/	.	.	.	.	.	.	.	.	.	.	.	.	.
4G\	3	.	8B/L	.	(8b\L	.	4G\	-i	4G/	-i	4d\	-i	4b\	-i	4g/	.	4dd\	.
.	.	.	(16A/L	.	16a\L	.	.	.	.	.	.	.	.	.	.	.	.	.
.	.	.	16B/JJ)	.	16b\JJ)	.	.	.	.	.	.	.	.	.	.	.	.	.
!	!	!	!	!	!	!	!	!	!	!	!LO:LB:g=original	!	!	!	!	!	!	!
=104	=104	=104	=104	=104	=104	=104	=104	=104	=104	=104	=104	=104	=104	=104	=104	=104	=104	=104
4C/	.	.	(8.c/L	.	(8.cc\L	.	4c\	no-	4G/	no-	4e\	no-	4cc\	no-	2cc\	.	2ee\	.
.	.	.	16e/Jk)	.	16ee\Jk)	.	.	.	.	.	.	.	.	.	.	.	.	.
4E\	6	.	(16g/LL	.	(16gg\LL	.	8E\	-ſtri	8c\	-stri	8g\	-stri	8cc\	-stri	.	.	.	.
.	.	.	16e/)	.	16ee\)	.	.	.	.	.	.	.	.	.	.	.	.	.
!	!	!	!	!	!	!	!	!LO:MO:mod=quae-	!	!LO:MO:mod=quae-	!	!LO:MO:mod=quae-	!	!	!	!	!	!
.	.	.	(16d/	.	(16dd\	.	8E\	que-	8c\	que-	8g\	que-	8cc\	quae-	.	.	.	.
.	.	.	16c/JJ)	.	16cc\JJ)	.	.	.	.	.	.	.	.	.	.	.	.	.
!LO:LB:g=original	!	!	!	!	!	!	!	!	!	!	!	!	!	!	!	!	!	!
=105	=105	=105	=105	=105	=105	=105	=105	=105	=105	=105	=105	=105	=105	=105	=105	=105	=105	=105
4F\	6	.	(16c#X/LL	.	(16cc#X\LL	.	4F\	-ſi-	4A/	-si-	4a\	-si-	4dd\	-si-	4cc\	.	4ff\	.
.	.	.	16d/J)	.	16dd\J)	.	.	.	.	.	.	.	.	.	.	.	.	.
.	.	.	8d/J|	.	8dd\J|	.	.	.	.	.	.	.	.	.	.	.	.	.
4G\	.	.	16r	.	16r	.	4G\	-vi	4G/	-vi	4b\	-vi	4dd\	-vi	4g/	.	4dd\	.
.	.	.	16f/LL|	.	16ff\LL|	.	.	.	.	.	.	.	.	.	.	.	.	.
.	.	.	16d/|	.	16dd\|	.	.	.	.	.	.	.	.	.	.	.	.	.
.	.	.	16B/JJ|	.	16b\JJ|	.	.	.	.	.	.	.	.	.	.	.	.	.
=106	=106	=106	=106	=106	=106	=106	=106	=106	=106	=106	=106	=106	=106	=106	=106	=106	=106	=106
4A\	3	.	(16B/LL	.	(16b\LL	.	4A\	bo-	4A/	bo-	4cc\	bo-	4ee\	bo-	4cc\	.	4ee\	.
.	.	.	16c/J)	.	16cc\J)	.	.	.	.	.	.	.	.	.	.	.	.	.
.	.	.	8c/J|	.	8cc\J|	.	.	.	.	.	.	.	.	.	.	.	.	.
4G\	_	.	16r	.	16r	.	4G\	-na	4G/	-na	4b\	-na-	4ee\	-na-	4cc\	.	4ee\	.
.	.	.	(16c/LL	.	(16cc\LL	.	.	.	.	.	.	.	.	.	.	.	.	.
.	.	.	16B/	.	16b\	.	.	.	.	.	.	.	.	.	.	.	.	.
.	x	.	16B-X/JJ)	.	16b-X\JJ)	.	.	.	.	.	.	.	.	.	.	.	.	.
=107	=107	=107	=107	=107	=107	=107	=107	=107	=107	=107	=107	=107	=107	=107	=107	=107	=107	=107
4F\	.	.	8A/L	.	16a\LL	.	4F\	ti-	4A/	ti-	8a\L	-ti-	4dd\	-ti-	4dd\	.	4ff\	.
.	.	.	.	.	16dd\	.	.	.	.	.	.	.	.	.	.	.	.	.
.	.	.	16a/L	.	16ff\	.	.	.	.	.	8f\	.	.	.	.	.	.	.
.	.	.	16f/JJ	.	16dd\JJ	.	.	.	.	.	.	.	.	.	.	.	.	.
!LO:TX:t=P:problem=mixed beam	!	!	!	!	!	!	!LO:TX:t=P:problem=mixed beam	!	!	!	!	!	!	!	!	!	!	!
8G\L	4	.	8e/L	.	8cc\L	.	8G\L	.	4G/	.	8e\	.	8cc\L	.	8cc\L	.	8ee\L	.
8GG/J	3	.	8d/J	.	8bn\J	.	8GG/J	.	.	.	8d\J	.	8b\J	.	8g\J	.	8dd\J	.
!	!	!	!	!	!	!	!	!	!	!	!	!	!LO:LB:g=original	!	!	!	!	!
=108	=108	=108	=108	=108	=108	=108	=108	=108	=108	=108	=108	=108	=108	=108	=108	=108	=108	=108
!LO:MO:mod=!LO&colon;TX&colon;i&colon;t=Solo	!	!	!LO:MO:mod=!LO&colon;TX&colon;i&colon;t=Solo	!	!LO:MO:mod=!LO&colon;TX&colon;i&colon;t=Solo	!	!	!	!	!	!	!	!	!	!	!	!	!
!LO:TX:a:t=Solo	!	!	!LO:TX:a:t=Solo	!	!LO:TX:a:t=Solo	!	!	!	!	!	!	!LO:MO:mod=-bi	!	!LO:MO:mod=-bi	!	!	!	!
4C/	.	.	8e/L	.	8cc\L	.	4C/	-bi	4G/	-bi	4e\	-vi	4cc\	-vi	4e/	.	4cc\	.
.	.	.	(32e/LL	.	(32ee\LL	.	.	.	.	.	.	.	.	.	.	.	.	.
.	.	.	32d/	.	32dd\	.	.	.	.	.	.	.	.	.	.	.	.	.
.	.	.	32e/	.	32ee\	.	.	.	.	.	.	.	.	.	.	.	.	.
.	.	.	32f/JJJ)	.	32ff\JJJ)	.	.	.	.	.	.	.	.	.	.	.	.	.
!	!	!	!	!	!LO:SIC:s=(16ggLL	!	!	!	!	!	!	!	!	!	!	!	!	!
8r	.	.	(16g/LL	.	16gg\LL	.	4r	.	4r	.	4r	.	4r	.	4r	.	4r	.
!	!	!	!	!	!LO:SIC:s=16aa)	!	!	!	!	!	!	!	!	!	!	!	!	!
.	.	.	16a/)	.	16aa\	.	.	.	.	.	.	.	.	.	.	.	.	.
!	!	!	!	!	!LO:SIC:s=(16bb	!	!	!	!	!	!	!	!	!	!	!	!	!
8C/	.	.	(16b/	.	16bb\	.	.	.	.	.	.	.	.	.	.	.	.	.
!	!	!	!	!	!LO:SIC:s=16cccJJ)	!	!	!	!	!	!	!	!	!	!	!	!	!
.	.	.	16cc/JJ)	.	16ccc\JJ	.	.	.	.	.	.	.	.	.	.	.	.	.
=109	=109	=109	=109	=109	=109	=109	=109	=109	=109	=109	=109	=109	=109	=109	=109	=109	=109	=109
!	!	!	!	!	!	!	!	!	!	!	!	!	!LO:TX:a:t=Tenor Solo:mod=	!	!	!	!	!
4D/	6 3	.	(8.g/L	.	(8.gg\L	.	0r	.	1r	.	1r	.	0r	.	2r	.	2r	.
.	.	.	16f/Jk)	.	16ff\Jk)	.	.	.	.	.	.	.	.	.	.	.	.	.
4BB/	6 5	.	(16d/LL	.	(16dd\LL	.	.	.	.	.	.	.	.	.	.	.	.	.
.	.	.	16e/)	.	16ee\)	.	.	.	.	.	.	.	.	.	.	.	.	.
.	.	.	(16f/	.	(16ff\	.	.	.	.	.	.	.	.	.	.	.	.	.
.	.	.	16g/JJ)	.	16gg\JJ)	.	.	.	.	.	.	.	.	.	.	.	.	.
=110	=110	=110	=110	=110	=110	=110	=110	=110	=110	=110	=110	=110	=110	=110	=110	=110	=110	=110
4C/	.	.	(16f/LL	.	(16ff\LL	.	.	.	.	.	.	.	.	.	4r	.	4r	.
.	.	.	16e/)	.	16ee\)	.	.	.	.	.	.	.	.	.	.	.	.	.
.	.	.	(16d/	.	(16dd\	.	.	.	.	.	.	.	.	.	.	.	.	.
.	.	.	16e/JJ)	.	16ee\JJ)	.	.	.	.	.	.	.	.	.	.	.	.	.
!	!	!	!	!	!LO:SIC:s=8ccL|	!	!	!	!	!	!	!	!	!	!	!	!	!
4E\	6	.	8c/L|	.	8cc\L	.	.	.	.	.	.	.	.	.	8r	.	8r	.
!	!	!	!	!	!LO:SIC:s=8ccJ|	!	!	!	!	!	!	!	!	!	!	!	!	!
.	.	.	8c/J|	.	8cc\J	.	.	.	.	.	.	.	.	.	8cc\	.	8ee\	.
!	!	!	!LO:LB:g=original	!	!LO:LB:g=original	!	!	!	!	!	!	!	!	!	!	!	!	!
=111	=111	=111	=111	=111	=111	=111	=111	=111	=111	=111	=111	=111	=111	=111	=111	=111	=111	=111
4F\	6	.	8d/L	.	8dd\L	.	.	.	2r	.	2r	.	.	.	4dd\	.	4ff\	.
.	.	.	16f/L	.	16ff\L	.	.	.	.	.	.	.	.	.	.	.	.	.
.	.	.	16d/JJ	.	16dd\JJ	.	.	.	.	.	.	.	.	.	.	.	.	.
!LO:TX:t=P:problem=mixed beam	!	!	!	!	!	!	!	!	!	!	!	!	!	!	!	!	!	!
8G\L	4	.	16d/LL	.	16dd\LL	.	.	.	.	.	.	.	.	.	8cc\L	.	8ee\L	.
.	.	.	16c/	.	16cc\	.	.	.	.	.	.	.	.	.	.	.	.	.
8GG/J	3	.	16c/	.	16cc\	.	.	.	.	.	.	.	.	.	8g\J	.	8dd\J	.
.	.	.	16B/JJ	.	16b\JJ	.	.	.	.	.	.	.	.	.	.	.	.	.
=112	=112	=112	=112	=112	=112	=112	=112	=112	=112	=112	=112	=112	=112	=112	=112	=112	=112	=112
!	!	!	!	!	!	!	!	!	!LO:MO:mod=!LO&colon;TX&colon;i&colon;t=Solo	!	!LO:MO:mod=!LO&colon;TX&colon;i&colon;t=Solo	!	!	!	!	!	!	!
!	!	!LO:DY:a	!	!LO:DY:a	!	!LO:MO:null:mod=p	!	!	!LO:TX:a:rj:t=Solo	!	!LO:TX:a:t=Solo	!	!	!	!	!	!	!
8C/L	.	p	8e/L	p	8cc\L	.	.	.	4e\	Glo-	4g\	Glo-	.	.	4e/	.	4cc\	.
!	!	!	!	!	!	!LO:DY:a	!	!	!	!	!	!	!	!	!	!	!	!
!	!	!	!	!	!	!LO:MO:null:mod=.	!	!	!	!	!	!	!	!	!	!	!	!
8C/	.	.	8g/	.	8ee\	p	.	.	.	.	.	.	.	.	.	.	.	.
8C/	.	.	8g/	.	8ee\	.	.	.	16c\LL	-ri-	16e\LL	-ri-	.	.	4r	.	4r	.
.	.	.	.	.	.	.	.	.	16B\JJ	.	16d\JJ	.	.	.	.	.	.	.
!	!	!	!	!	!	!	!	!	!LO:LB:g=original	!	!	!	!	!	!	!	!	!
8C/J	.	.	8g/J	.	8ee\J	.	.	.	16c\LL	-a	16e\LL	-a	.	.	.	.	.	.
.	.	.	.	.	.	.	.	.	16d\JJ	.	16f\JJ	.	.	.	.	.	.	.
=113	=113	=113	=113	=113	=113	=113	=113	=113	=113	=113	=113	=113	=113	=113	=113	=113	=113	=113
!	!	!	!	!	!	!	!	!	!	!LO:MO:mod=Pa-	!	!LO:MO:mod=Pa-	!	!	!	!	!	!
8r	.	.	8r	.	8r	.	0r	.	4e\	pa-	4g\	pa-	0r	.	0r	.	0r	.
8C/L	.	.	8g/L	.	8ee\L	.	.	.	.	.	.	.	.	.	.	.	.	.
8C/	.	.	8g/	.	8ee\	.	.	.	8c\	-tri	8e\	-tri	.	.	.	.	.	.
8C/J	.	.	8g/J	.	8ee\J	.	.	.	8r	.	8r	.	.	.	.	.	.	.
!	!	!	!	!	!	!	!	!	!	!	!LO:PB:g=original	!	!	!	!	!	!	!
=114	=114	=114	=114	=114	=114	=114	=114	=114	=114	=114	=114	=114	=114	=114	=114	=114	=114	=114
8r	.	.	8r	.	8r	.	.	.	4e\	Glo-	4g\	Glo-	.	.	.	.	.	.
8C/L	.	.	8g/L	.	8ee\L	.	.	.	.	.	.	.	.	.	.	.	.	.
8C/	.	.	8g/	.	8ee\	.	.	.	16f\LL	-ri-	16a\LL	-ri-	.	.	.	.	.	.
.	.	.	.	.	.	.	.	.	16e\JJ	.	16g\JJ	.	.	.	.	.	.	.
8C/J	.	.	8g/J	.	8ee\J	.	.	.	16d\LL	-a	16f\LL	-a	.	.	.	.	.	.
.	.	.	.	.	.	.	.	.	16c\JJ	.	16e\JJ	.	.	.	.	.	.	.
=115	=115	=115	=115	=115	=115	=115	=115	=115	=115	=115	=115	=115	=115	=115	=115	=115	=115	=115
!	!	!	!	!	!	!	!	!	!	!LO:MO:mod=Fi-	!LO:SIC:s=8.e	!LO:MO:mod=Fi-	!	!	!	!	!	!
8r	.	.	8r	.	8r	.	.	.	8.c\	fi-	8.e\L	fi-	.	.	.	.	.	.
!LO:TX:t=P:problem=mixed beam	!	!	!	!	!	!	!	!	!	!	!	!	!	!	!	!	!	!
8G\L	4	.	8e/L	.	8cc\L	.	.	.	.	.	.	.	.	.	.	.	.	.
!	!	!	!	!	!	!	!	!	!	!	!LO:SIC:s=16e	!	!	!	!	!	!	!
.	.	.	.	.	.	.	.	.	16c\	-li-	16e\Jk	-li-	.	.	.	.	.	.
8GG/	3	.	8d/	.	8b\	.	.	.	8B\	-o	8d\	-o	.	.	.	.	.	.
8GG/J	.	.	8d/J	.	8b\J	.	.	.	8r	.	8r	.	.	.	.	.	.	.
=116	=116	=116	=116	=116	=116	=116	=116	=116	=116	=116	=116	=116	=116	=116	=116	=116	=116	=116
8r	.	.	8r	.	8r	.	.	.	4.d\	et	4.f\	et	.	.	.	.	.	.
8G\L	7	.	8d/L	.	8b\L	.	.	.	.	.	.	.	.	.	.	.	.	.
8G\	_	.	8d/	.	8b\	.	.	.	.	.	.	.	.	.	.	.	.	.
!	!	!	!	!	!	!	!	!	!	!LO:SIC:s=Spi-	!	!LO:SIC:s=Spi-	!	!	!	!	!	!
8G\J	.	.	8d/J	.	8b\J	.	.	.	16e\LL	ſpi-	16g\LL	ſpi-	.	.	.	.	.	.
.	x	.	.	.	.	.	.	.	16d\JJ	.	16f\JJ	.	.	.	.	.	.	.
=117	=117	=117	=117	=117	=117	=117	=117	=117	=117	=117	=117	=117	=117	=117	=117	=117	=117	=117
8r	.	.	8r	.	8r	.	0r	.	16c\LL	-ri-	16e\LL	-ri-	0r	.	1r	.	1r	.
.	.	.	.	.	.	.	.	.	16B\	.	16d\	.	.	.	.	.	.	.
8C/L	.	.	8e/L	.	8cc\L	.	.	.	16c\	.	16e\	.	.	.	.	.	.	.
.	.	.	.	.	.	.	.	.	16d\JJ	.	16f\JJ	.	.	.	.	.	.	.
8C/	.	.	8e/	.	8cc\	.	.	.	8e\	-tu-	8g\	-tu-	.	.	.	.	.	.
8C/J	.	.	8e/J	.	8cc\J	.	.	.	8e\	-i	8g\	-i	.	.	.	.	.	.
!LO:PB:g=original	!	!	!	!	!	!	!	!	!	!	!	!	!	!	!	!	!	!
=118	=118	=118	=118	=118	=118	=118	=118	=118	=118	=118	=118	=118	=118	=118	=118	=118	=118	=118
!LO:TX:t=P:problem=mixed beam	!	!	!	!	!	!	!	!	!	!LO:SIC:s=Sanc-	!	!LO:SIC:s=Sanc-	!	!	!	!	!	!
8F/L	6	.	8f/L	.	8dd\L	.	.	.	8.f\L	ſanc-	8.a\L	ſanc-	.	.	.	.	.	.
8F\	.	.	16a/L	.	16ff\L	.	.	.	.	.	.	.	.	.	.	.	.	.
!	!	!	!	!	!	!	!	!	!LO:SIC:s=(32eLL	!	!	!	!	!	!	!	!	!
.	.	.	16f/JJ	.	16dd\JJ	.	.	.	32e\LL	.	(32g\LL	.	.	.	.	.	.	.
!	!	!	!	!	!	!	!	!	!LO:SIC:s=32dJJJ)	!	!	!	!	!	!	!	!	!
.	.	.	.	.	.	.	.	.	32d\JJJ	.	32f\JJJ)	.	.	.	.	.	.	.
8G\	4	.	8e/L	.	8cc\L	.	.	.	8c\L	.	8e\L	.	.	.	.	.	.	.
8GG/J	3	.	8d/J	.	8b\J	.	.	.	8B\J	.	8d\J	.	.	.	.	.	.	.
=119	=119	=119	=119	=119	=119	=119	=119	=119	=119	=119	=119	=119	=119	=119	=119	=119	=119	=119
!	!	!	!	!	!LO:MO:mod=!LO&colon;TX&colon;i&colon;t=Solo	!	!	!	!	!	!	!	!	!	!	!	!	!
!	!	!	!	!	!LO:TX:a:t=Solo	!	!	!	!	!	!	!	!	!	!	!	!	!
4C/	.	.	4e/	.	8cc\L	.	.	.	4c\	-to	4e\	-to	.	.	4r	.	4r	.
.	.	.	.	.	32ee\LL	.	.	.	.	.	.	.	.	.	.	.	.	.
.	.	.	.	.	32dd\	.	.	.	.	.	.	.	.	.	.	.	.	.
.	.	.	.	.	32ee\	.	.	.	.	.	.	.	.	.	.	.	.	.
.	.	.	.	.	32ff\JJJ	.	.	.	.	.	.	.	.	.	.	.	.	.
8r	.	.	8r	.	16gg\LL	.	.	.	4r	.	4r	.	.	.	8r	.	8r	.
.	.	.	.	.	16aa\	.	.	.	.	.	.	.	.	.	.	.	.	.
!	!	!	!LO:MO:mod=!LO&colon;TX&colon;i&colon;t=Solo	!	!	!	!	!	!	!	!	!	!	!	!	!	!	!
!	!	!	!LO:TX:a:rj:t=Solo	!	!	!	!	!	!	!	!	!	!	!	!	!	!	!
8BB/	6 5	.	8d/	.	16gg\	.	.	.	.	.	.	.	.	.	8g/	.	8dd\	.
.	.	.	.	.	16ff\JJ	.	.	.	.	.	.	.	.	.	.	.	.	.
!	!	!	!	!	!LO:LB:g=original	!	!	!	!	!	!	!	!	!	!	!	!	!
=120	=120	=120	=120	=120	=120	=120	=120	=120	=120	=120	=120	=120	=120	=120	=120	=120	=120	=120
!LO:TX:t=P:problem=mixed beam	!	!	!LO:TX:t=P:problem=mixed beam	!	!	!	!	!	!	!	!	!	!	!	!	!	!	!
8C\L	.	.	16e/LL	.	16ee\LL	.	.	.	1r	.	2r	.	.	.	8cc\L	.	8ee\L	.
.	.	.	16ee\	.	16gg\	.	.	.	.	.	.	.	.	.	.	.	.	.
8F\	6	.	16ff\	.	16aa\	.	.	.	.	.	.	.	.	.	8dd\	.	8ff\	.
.	.	.	16dd\JJ	.	16ff\JJ	.	.	.	.	.	.	.	.	.	.	.	.	.
8G\	4	.	16dd\LL	.	8ee\L	.	.	.	.	.	.	.	.	.	8cc\	.	8ee\	.
.	.	.	16cc\	.	.	.	.	.	.	.	.	.	.	.	.	.	.	.
8GG/J	3	.	16cc\	.	8dd\J	.	.	.	.	.	.	.	.	.	8g\J	.	8dd\J	.
.	.	.	16b\JJ	.	.	.	.	.	.	.	.	.	.	.	.	.	.	.
!	!	!	!LO:LB:g=original	!	!	!	!	!	!	!	!LO:LB:g=original	!	!	!	!	!	!	!
!!LO:MO:ori
=121	=121	=121	=121	=121	=121	=121	=121	=121	=121	=121	=121	=121	=121	=121	=121	=121	=121	=121
!	!	!	!	!	!	!	!	!	!LO:TX:t=P:problem=niepotrzebny pusty 122 i 123 takt	!	!	!	!	!	!	!	!	!
2ryy	.	.	2ryy	.	2ryy	.	2ryy	.	.	.	2ryy	.	2ryy	.	2ryy	.	2ryy	.
=122	=122	=122	=122	=122	=122	=122	=122	=122	=122	=122	=122	=122	=122	=122	=122	=122	=122	=122
2ryy	.	.	2ryy	.	2ryy	.	2ryy	.	2r	.	2ryy	.	2ryy	.	2ryy	.	2ryy	.
!	!	!	!	!	!	!	!	!	!LO:LB:g=original	!	!	!	!	!	!	!	!	!
!!LO:MO:end
=123	=123	=123	=123	=123	=123	=123	=123	=123	=123	=123	=123	=123	=123	=123	=123	=123	=123	=123
!	!	!LO:MO:null:mod=!LO&colon;DY&colon;ed=brack	!	!	!	!	!	!	!	!	!	!	!	!	!	!	!	!
!LO:MO:mod=!LO&colon;TX&colon;i&colon;t=Tutti	!	!	!	!	!	!	!	!	!	!	!	!	!	!	!	!	!	!
!LO:TX:a:t=tutti	!	!LO:MO:null:mod=f	!	!LO:DY:a	!	!LO:DY:a	!	!	!	!	!	!	!	!	!	!	!	!
8C/L	.	.	16e/LL 16G/	f	8.ee\L	f	4c\	ſi-	4G/	ſi-	4e\	ſi-	4cc\	ſi-	2cc\	.	2ee\	.
.	.	.	16e/ 16G/	.	.	.	.	.	.	.	.	.	.	.	.	.	.	.
8C/	.	.	16e/ 16G/	.	.	.	.	.	.	.	.	.	.	.	.	.	.	.
.	.	.	16e/JJ 16G/	.	16gg\Jk	.	.	.	.	.	.	.	.	.	.	.	.	.
*	*	*	*tremolo	*	*	*	*	*	*	*	*	*	*	*	*	*	*	*
8C/	.	.	16e/LL 16G/	.	16ff\LL	.	4c\	-cut	4G/	-cut	4e\	-cut	4cc\	-cut	.	.	.	.
.	.	.	16e/ 16G/	.	16ee\	.	.	.	.	.	.	.	.	.	.	.	.	.
8C/J	.	.	16e/ 16G/	.	16dd\	.	.	.	.	.	.	.	.	.	.	.	.	.
.	.	.	16e/JJ 16G/	.	16ee\JJ	.	.	.	.	.	.	.	.	.	.	.	.	.
!	!	!	!	!	!	!	!	!	!	!	!	!	!	!	!	!	!LO:LB:g=original	!
=124	=124	=124	=124	=124	=124	=124	=124	=124	=124	=124	=124	=124	=124	=124	=124	=124	=124	=124
8BB/L	6 5	.	16f/LL 16G/	.	(8.gg\L	.	4B\	e-	4G/	e-	4f\	e-	4dd\	e-	2g/	.	2dd\	.
.	.	.	16f/ 16G/	.	.	.	.	.	.	.	.	.	.	.	.	.	.	.
8BB/	.	.	16f/ 16G/	.	.	.	.	.	.	.	.	.	.	.	.	.	.	.
.	.	.	16f/JJ 16G/	.	16ff\Jk)	.	.	.	.	.	.	.	.	.	.	.	.	.
8BB/	.	.	16f/LL 16G/	.	8dd\L|	.	4B\	-rat	4G/	-rat	4f\	-rat	4dd\	-rat	.	.	.	.
.	.	.	16f/ 16G/	.	.	.	.	.	.	.	.	.	.	.	.	.	.	.
8BB/J	_ _	.	16f/ 16G/	.	8dd\J|	.	.	.	.	.	.	.	.	.	.	.	.	.
.	.	.	16f/JJ 16G/	.	.	.	.	.	.	.	.	.	.	.	.	.	.	.
!	!	!	!	!	!	!	!LO:LB:g=original	!	!	!	!	!	!	!	!LO:LB:g=original	!	!	!
=125	=125	=125	=125	=125	=125	=125	=125	=125	=125	=125	=125	=125	=125	=125	=125	=125	=125	=125
*tremolo	*	*	*	*	*	*	*	*	*	*	*	*	*	*	*	*	*	*
8BB/L	.	.	16f/LL 16G/	.	(8.dd\L	.	4B\	in	4G/	in	4f\	in	4dd\	in	2g/	.	2dd\	.
.	.	.	16f/ 16G/	.	.	.	.	.	.	.	.	.	.	.	.	.	.	.
8BB/	x	.	16f/ 16G/	.	.	.	.	.	.	.	.	.	.	.	.	.	.	.
.	.	.	16f/JJ 16G/	.	16ff\Jk)	.	.	.	.	.	.	.	.	.	.	.	.	.
8BB/	.	.	16f/LL 16G/	.	(16ee\LL	.	4B\	prin-	4G/	prin-	4f\	prin-	4dd\	prin-	.	.	.	.
.	.	.	16f/ 16G/	.	16dd\)	.	.	.	.	.	.	.	.	.	.	.	.	.
8BB/J	.	.	16f/ 16G/	.	(16cc\	.	.	.	.	.	.	.	.	.	.	.	.	.
.	.	.	16f/JJ 16G/	.	16dd\JJ)	.	.	.	.	.	.	.	.	.	.	.	.	.
*Xtremolo	*	*	*	*	*	*	*	*	*	*	*	*	*	*	*	*	*	*
=126	=126	=126	=126	=126	=126	=126	=126	=126	=126	=126	=126	=126	=126	=126	=126	=126	=126	=126
8C\L	.	.	16e/LL 16G/	.	(8.gg\L	.	8.c\	-ci-	8.G/	-ci-	8.e\	-ci-	8.cc\	-ci-	2cc\	.	2ee\	.
.	.	.	16e/ 16G/	.	.	.	.	.	.	.	.	.	.	.	.	.	.	.
8C\	.	.	16e/ 16G/	.	.	.	.	.	.	.	.	.	.	.	.	.	.	.
.	.	.	16e/JJ 16G/	.	16ee\Jk)	.	16c\	-pi-	16G/	-pi-	16e\	-pi-	16cc\	-pi-	.	.	.	.
8E\	6	.	16e/LL 16G/	.	8cc\L|	.	8c\	-o	8G/	-o	8e\	-o	8cc\	-o	.	.	.	.
.	.	.	16e/ 16G/	.	.	.	.	.	.	.	.	.	.	.	.	.	.	.
8E\J	.	.	16e/ 16G/	.	8cc\J|	.	8E\	et	8G/	et	8e\	et	8cc\	et	.	.	.	.
.	.	.	16e/JJ 16G/	.	.	.	.	.	.	.	.	.	.	.	.	.	.	.
*	*	*	*Xtremolo	*	*	*	*	*	*	*	*	*	*	*	*	*	*	*
=127	=127	=127	=127	=127	=127	=127	=127	=127	=127	=127	=127	=127	=127	=127	=127	=127	=127	=127
8D\L	6	.	(16c#X/LL	.	(16cc#X\LL	.	4F\	nunc	4A/	nunc	4f\	nunc	4dd\	nunc	4dd\	.	4ff\	.
.	.	.	16d/J)	.	16dd\J)	.	.	.	.	.	.	.	.	.	.	.	.	.
8D\	_	.	8d/J|	.	8dd\J|	.	.	.	.	.	.	.	.	.	.	.	.	.
8F\	3	.	16r	.	16r	.	4G\	et	4G/	et	4d\	et	4b\	et	4g/	.	4dd\	.
.	.	.	16d/LL|	.	16dd\LL|	.	.	.	.	.	.	.	.	.	.	.	.	.
8F\J	_	.	16e/|	.	16ee\|	.	.	.	.	.	.	.	.	.	.	.	.	.
.	x	.	16d/JJ|	.	16dd\JJ|	.	.	.	.	.	.	.	.	.	.	.	.	.
=128	=128	=128	=128	=128	=128	=128	=128	=128	=128	=128	=128	=128	=128	=128	=128	=128	=128	=128
8A\L	.	.	(16d/LL	.	(16dd\LL	.	4A\	ſem-	4A/	ſem-	4e\	ſem-	4cc\	ſem-	4cc\	.	4ee\	.
.	.	.	16cn/J)	.	16ccn\J)	.	.	.	.	.	.	.	.	.	.	.	.	.
8A\	.	.	8c/J|	.	8cc\J|	.	.	.	.	.	.	.	.	.	.	.	.	.
8E\	6	.	16r	.	16r	.	4E\	-per	4G/	-per	4e\	-per	4cc\	-per	4cc\	.	4ee\	.
.	.	.	16c/LL|	.	16cc\LL|	.	.	.	.	.	.	.	.	.	.	.	.	.
8E\J	_	.	16B/|	.	16b\|	.	.	.	.	.	.	.	.	.	.	.	.	.
.	x	.	16c/JJ|	.	16cc\JJ|	.	.	.	.	.	.	.	.	.	.	.	.	.
=129	=129	=129	=129	=129	=129	=129	=129	=129	=129	=129	=129	=129	=129	=129	=129	=129	=129	=129
8F\L	6	.	(16c#X/LL	.	(16cc#X\LL	.	4F\	et	4A/	et	4f\	et	4dd\	et	4dd\	.	4ff\	.
.	.	.	16d/J)	.	16dd\J)	.	.	.	.	.	.	.	.	.	.	.	.	.
8F\	_	.	8d/J|	.	8dd\J|	.	.	.	.	.	.	.	.	.	.	.	.	.
8G\	3	.	16r	.	16r	.	4G\	in	4G/	in	4d\	in	4b\	in	4g/	.	4dd\	.
.	.	.	16d/LL|	.	16dd\LL|	.	.	.	.	.	.	.	.	.	.	.	.	.
8G\J	_	.	16e/|	.	16ee\|	.	.	.	.	.	.	.	.	.	.	.	.	.
.	x	.	16d/JJ|	.	16dd\JJ|	.	.	.	.	.	.	.	.	.	.	.	.	.
!	!	!	!	!	!LO:LB:g=original	!	!	!	!	!	!	!	!	!	!	!	!	!
=130	=130	=130	=130	=130	=130	=130	=130	=130	=130	=130	=130	=130	=130	=130	=130	=130	=130	=130
8A\L	.	.	(16d/LL	.	(16dd\LL	.	4A\	ſe-	4A/	ſae-	4e\	ſae-	4cc\	ſae-	4cc\	.	4ee\	.
.	.	.	16c/J)	.	16cc\J)	.	.	.	.	.	.	.	.	.	.	.	.	.
8A\	.	.	8c/J|	.	8cc\J|	.	.	.	.	.	.	.	.	.	.	.	.	.
8E\	6	.	16r	.	16r	.	8E\	-cu-	8G/	-cu-	8e\	-cu-	8cc\	-cu-	4r	.	4r	.
.	.	.	(16c/LL	.	(16cc\LL	.	.	.	.	.	.	.	.	.	.	.	.	.
8E\J	_	.	16B/	.	16b\	.	8E\	-la	8G/	-la	8e\	-la	8cc\	-la	.	.	.	.
.	x	.	16B-X/JJ)	.	16b-X\JJ)	.	.	.	.	.	.	.	.	.	.	.	.	.
!	!	!	!	!	!	!	!	!	!	!	!	!	!LO:LB:g=original	!	!	!	!	!
=131	=131	=131	=131	=131	=131	=131	=131	=131	=131	=131	=131	=131	=131	=131	=131	=131	=131	=131
!	!	!	!LO:SIC:v:s=(16B-LL	!	!LO:SIC:v:s=(16b-LL	!	!	!	!	!	!	!	!	!	!	!	!	!
8F\L	.	.	(16B/LL	.	(16b\LL	.	4F\	ſe-	4c\	ſae-	4f\	ſae-	4a\	ſae-	2r	.	2r	.
.	.	.	16A/J)	.	16a\J)	.	.	.	.	.	.	.	.	.	.	.	.	.
8F\	.	.	8.A/J	.	8.a\J	.	.	.	.	.	.	.	.	.	.	.	.	.
8F\	4 2	.	.	.	.	.	4F\	-cu-	4d\	-cu-	4g\	-cu-	4b\	-cu-	.	.	.	.
!	!	!	!LO:LB:g=original	!	!	!	!	!	!	!	!	!	!	!	!	!	!	!
.	.	.	(16Bn/LL	.	(16bn\LL	.	.	.	.	.	.	.	.	.	.	.	.	.
8F\J	_ _	.	16c/	.	16cc\	.	.	.	.	.	.	.	.	.	.	.	.	.
.	.	.	16d/JJ)	.	16dd\JJ)	.	.	.	.	.	.	.	.	.	.	.	.	.
!	!	!	!	!	!	!	!	!	!	!	!LO:LB:g=original	!	!	!	!	!	!	!
=132	=132	=132	=132	=132	=132	=132	=132	=132	=132	=132	=132	=132	=132	=132	=132	=132	=132	=132
!	!	!	!LO:SIC:s=(16cLL	!	!	!	!	!	!	!	!	!	!	!	!	!	!	!
8E\L	6	.	16c/LL	.	(16cc\LL	.	4E\	-lo-	4c\	-lo-	4g\	-lo-	4cc\	-lo-	8r	.	8r	.
!	!	!	!LO:SIC:s=16GJ)	!	!	!	!	!	!	!	!	!	!	!	!	!	!	!
.	.	.	16G/J	.	16g\J)	.	.	.	.	.	.	.	.	.	.	.	.	.
!	!	!	!LO:SIC:s=(8.GJ	!	!	!	!	!	!	!	!	!	!	!	!	!	!	!
8E\	_	.	8.G/J	.	(8.g\J	.	.	.	.	.	.	.	.	.	8cc\L	.	8ee\L	.
8E\	.	.	.	.	.	.	4E\	-rum	4c\	-rum	4g\	-rum	4cc\	-rum	8cc\	.	8ee\	.
!	!	!	!LO:SIC:s=16cLL)	!	!	!	!	!	!	!	!	!	!	!	!	!	!	!
.	.	.	16c/LL	.	16cc\LL)	.	.	.	.	.	.	.	.	.	.	.	.	.
8E\J	.	.	(16e/	.	(16ee\	.	.	.	.	.	.	.	.	.	8cc\J	.	8ee\J	.
.	x	.	16g/JJ)	.	16gg\JJ)	.	.	.	.	.	.	.	.	.	.	.	.	.
!LO:LB:g=original	!	!	!	!	!	!	!	!	!LO:LB:g=original	!	!	!	!	!	!	!	!	!
=133	=133	=133	=133	=133	=133	=133	=133	=133	=133	=133	=133	=133	=133	=133	=133	=133	=133	=133
*	*	*	*	*	*	*	*	*	*	*ij	*	*ij	*	*	*	*	*	*
!	!	!	!	!	!LO:SIC:s=(16ggLL	!	!	!	!	!	!	!	!	!	!	!	!	!
8BB/L	6 5	.	(16g/LL	.	16gg\LL	.	4B\	ſe-	4G/	ſae-	4f\	ſae-	4dd\	ſae-	4g/	.	4dd\	.
!	!	!	!	!	!LO:SIC:s=16ff)	!	!	!	!	!	!	!	!	!	!	!	!	!
.	.	.	16f/)	.	16ff\	.	.	.	.	.	.	.	.	.	.	.	.	.
!	!	!	!	!	!LO:SIC:s=16ee(	!	!	!	!	!	!	!	!	!	!	!	!	!
8BB/	.	.	(16e/	.	16ee\	.	.	.	.	.	.	.	.	.	.	.	.	.
!	!	!	!	!	!LO:SIC:s=16ddJJ)	!	!	!	!	!	!	!	!	!	!	!	!	!
.	.	.	16d/JJ)	.	16dd\JJ	.	.	.	.	.	.	.	.	.	.	.	.	.
!	!	!	!	!	!LO:SIC:s=(16ffLL	!	!	!	!	!	!	!	!	!	!	!	!	!
8C/	.	.	(16f/LL	.	16ff\LL	.	4c\	-cu-	4G/	-cu-	4e\	-cu-	4cc\	-cu-	4cc\	.	4ee\	.
!	!	!	!	!	!LO:SIC:s=16ee)	!	!	!	!	!	!	!	!	!	!	!	!	!
.	.	.	16e/)	.	16ee\	.	.	.	.	.	.	.	.	.	.	.	.	.
!	!	!	!	!	!LO:SIC:s=(16dd	!	!	!	!	!	!	!	!	!	!	!	!	!
8E/J	6	.	(16d/	.	16dd\	.	.	.	.	.	.	.	.	.	.	.	.	.
!	!	!	!	!	!LO:SIC:s=16ccJJ)	!	!	!	!	!	!	!	!	!	!	!	!	!
.	.	.	16c/JJ)	.	16cc\JJ	.	.	.	.	.	.	.	.	.	.	.	.	.
=134	=134	=134	=134	=134	=134	=134	=134	=134	=134	=134	=134	=134	=134	=134	=134	=134	=134	=134
!LO:TX:t=P:problem=mixed beam	!	!	!LO:SIC:s=(16cLL	!	!	!	!	!	!	!	!	!	!	!	!	!	!	!
8F\L	6	.	16c/LL	.	(16cc#X\LL	.	8F\	-lo-	8A/	-lo-	8f\	-lo-	8dd\	-lo-	4dd\	.	4ff\	.
!	!	!	!LO:SIC:s=16d)	!	!	!	!	!	!	!	!	!	!	!	!	!	!	!
.	.	.	16d/	.	16dd\)	.	.	.	.	.	.	.	.	.	.	.	.	.
!	!	!	!LO:SIC:s=(16a	!	!	!	!	!	!	!	!	!	!	!	!	!	!	!
8F\	.	.	16a/	.	(16ff\	.	8F\	-rum	8A/	-rum	8f\	-rum	8dd\	-rum	.	.	.	.
*	*	*	*	*	*	*	*	*	*	*Xij	*	*Xij	*	*	*	*	*	*
!	!	!	!LO:SIC:s=16fJJ)	!	!	!	!	!	!	!	!	!	!	!	!	!	!	!
.	.	.	16f/JJ	.	16dd\JJ)	.	.	.	.	.	.	.	.	.	.	.	.	.
!	!	!	!	!	!	!	!LO:LB:g=original	!	!	!	!	!	!	!	!	!	!	!
!	!	!	!LO:SIC:s=(16fLL	!	!LO:SIC:s=(16ddLL	!	!LO:TX:t=P:problem=mixed beam	!	!	!	!	!	!	!	!	!	!	!
8G\	4	.	16f/LL	.	16dd\LL	.	8G\L	a-	4G/	a-	8e\L	a-	8cc\L	a-	8cc\L	.	8ee\L	.
!	!	!	!LO:SIC:s=16e)	!	!LO:SIC:s=16cc)	!	!	!	!	!	!	!	!	!	!	!	!	!
.	.	.	16e/	.	16ccn\	.	.	.	.	.	.	.	.	.	.	.	.	.
!	!	!	!LO:SIC:s=(16e	!	!LO:SIC:s=(16cc	!	!	!	!	!	!	!	!	!	!	!	!	!
8GG/J	3	.	16e/	.	16cc\	.	8GG/J	.	.	.	8d\J	.	8b\J	.	8g\J	.	8dd\J	.
!	!	!	!LO:SIC:s=16dJJ)	!	!LO:SIC:s=16bJJ)	!	!	!	!	!	!	!	!	!	!	!	!	!
.	.	.	16d/JJ	.	16b\JJ	.	.	.	.	.	.	.	.	.	.	.	.	.
=135	=135	=135	=135	=135	=135	=135	=135	=135	=135	=135	=135	=135	=135	=135	=135	=135	=135	=135
!	!	!	!LO:SIC:s=8eL|	!	!	!	!	!	!	!	!	!	!	!	!	!	!	!
4C/	.	.	8e/L	.	8cc\L|	.	4C/	-men	4G/	-men	4e\	-men	4cc\	-men	4e/	.	4cc\	.
.	.	.	(32c/LL	.	(32cc\LL	.	.	.	.	.	.	.	.	.	.	.	.	.
.	.	.	32d/	.	32dd\	.	.	.	.	.	.	.	.	.	.	.	.	.
.	.	.	32e/	.	32ee\	.	.	.	.	.	.	.	.	.	.	.	.	.
.	.	.	32f/JJJ)	.	32ff\JJJ)	.	.	.	.	.	.	.	.	.	.	.	.	.
8r	.	.	8g/L|	.	8gg\L|	.	8r	.	8r	.	8r	.	8r	.	8r	.	8r	.
*	*	*	*	*	*	*	*	*ij	*	*ij	*	*ij	*	*ij	*	*	*	*
8GG/	.	.	8f/J|	.	8b\J|	.	8G\	a-	8G/	a-	8d\	a-	8b\	a-	8g/	.	8dd\	.
=136	=136	=136	=136	=136	=136	=136	=136	=136	=136	=136	=136	=136	=136	=136	=136	=136	=136	=136
4C/	.	.	8e/L|	.	8cc\L|	.	4C/	-men	4G/	-men	4e\	-men	4cc\	-men	4e/	.	4cc\	.
.	.	.	(32c/LL	.	(32cc\LL	.	.	.	.	.	.	.	.	.	.	.	.	.
.	.	.	32d/	.	32dd\	.	.	.	.	.	.	.	.	.	.	.	.	.
.	.	.	32e/	.	32ee\	.	.	.	.	.	.	.	.	.	.	.	.	.
.	.	.	32f/JJJ)	.	32ff\JJJ)	.	.	.	.	.	.	.	.	.	.	.	.	.
!	!	!	!LO:SIC:s=8gL|	!	!	!	!	!	!	!	!	!	!	!	!	!	!	!
8r	.	.	8g/L	.	8gg\L|	.	8r	.	8r	.	8r	.	8r	.	8r	.	8r	.
!	!	!	!LO:SIC:s=8fJ|	!	!	!	!	!	!	!	!	!	!	!	!	!	!	!
8GG/	.	.	8f/J	.	8b\J|	.	8G\	a-	8G/	a-	8d\	a-	8b\	a-	8g/	.	8dd\	.
!	!	!	!	!	!LO:LB:g=original	!	!	!	!	!	!	!	!	!	!	!	!	!
=137	=137	=137	=137	=137	=137	=137	=137	=137	=137	=137	=137	=137	=137	=137	=137	=137	=137	=137
4C/	.	.	4e/	.	4cc\	.	4C/	-men	4G/	-men	4e\	-men	4cc\	-men	4e/	.	4cc\	.
*	*	*	*	*	*	*	*	*Xij	*	*Xij	*	*Xij	*	*Xij	*	*	*	*
4r	.	.	4r	.	4r	.	4r	.	4r	.	4r	.	4r	.	4r	.	4r	.
==	==	==	==	==	==	==	==	==	==	==	==	==	==	==	==	==	==	==
*-	*-	*-	*-	*-	*-	*-	*-	*-	*-	*-	*-	*-	*-	*-	*-	*-	*-	*-
!!!system-decoration: [(s1,s2)][(s3,s4,s5,s6)][(s7,s8)]s9
!!!RDF**kern: > = above
!!!RDF**kern: < = below
!!LO:MO:ori
!!!RDF**dynam: p = p.
!!!RDF**dynam: f = for
!!LO:MO:end
!!!ENC: Anastazja Marusiak
!!!END: 2021-12-01
!!!ENC: Leszek Kubiak
!!!END: 2021-12-10
!!!RDF**kern: | = vertical stroke
!!!ENC-modern: Andrzej Borzym
!!!END-modern: 2022-08-20
